; generated by Slic3r 1.2.4 on 2015-01-08 at 21:34:42

; external perimeters extrusion width = 0.40mm
; perimeters extrusion width = 0.68mm
; infill extrusion width = 1.28mm
; solid infill extrusion width = 0.68mm
; top infill extrusion width = 0.68mm

M107
M104 S200 ; set temperature
G28 ; home all pillars
G29 ; z probe
G1 X0 Y0 Z0 ; plug nozzle to stop ooze
M109 S200 ; wait for temperature to be reached
G21 ; set units to millimeters
G90 ; use absolute coordinates
M82 ; use absolute distances for extrusion
G92 E0
G1 E-3.00000 F1800.00000
G92 E0
G1 Z0.400 F7800.000
G1 X74.677 Y78.020 F7800.000
G1 E3.00000 F1800.00000
G1 X76.433 Y76.520 E3.27422 F1080.000
G1 X78.593 Y75.705 E3.54845
G1 X79.850 Y75.586 E3.69842
G1 X120.150 Y75.586 E8.48465
G1 X122.425 Y75.983 E8.75888
G1 X124.430 Y77.127 E9.03310 F1080.000
G1 X125.930 Y78.883 E9.30733
G1 X126.745 Y81.043 E9.58155
G1 X126.864 Y82.300 E9.73152
G1 X126.864 Y117.700 E13.93581
G1 X126.467 Y119.975 E14.21003
G1 X125.323 Y121.980 E14.48426
G1 X123.567 Y123.480 E14.75848
G1 X121.407 Y124.295 E15.03271
G1 X120.150 Y124.414 E15.18267
G1 X79.850 Y124.414 E19.96891
G1 X77.575 Y124.017 E20.24313
G1 X75.570 Y122.873 E20.51736
G1 X74.070 Y121.117 E20.79158
G1 X73.255 Y118.957 E21.06581
G1 X73.136 Y117.700 E21.21577
G1 X73.136 Y82.300 E25.42006
G1 X73.533 Y80.025 E25.69429
G1 X74.647 Y78.072 E25.96139
G1 E22.96139 F1800.00000
G92 E0
G1 X81.678 Y84.128 F7800.000
G1 E3.00000 F1800.00000
G1 X118.322 Y84.128 E7.35196 F756.000
G1 X118.322 Y115.872 E11.12196
G1 X81.678 Y115.872 E15.47392
G1 X81.678 Y84.188 E19.23680
G1 X80.964 Y83.414 F7800.000
G1 X119.036 Y83.414 E23.75839 F756.000
G1 X119.036 Y116.586 E27.69803
G1 X80.964 Y116.586 E32.21962
G1 X80.964 Y83.474 E36.15213
G1 X80.250 Y82.700 F7800.000
G1 X119.750 Y82.700 E40.84336 F529.200
G1 X119.750 Y117.300 E44.95263
G1 X80.250 Y117.300 E49.64386
G1 X80.250 Y82.760 E53.74601
G1 X80.596 Y82.900 F7800.000
G1 E50.74601 F1800.00000
G92 E0
G1 X82.216 Y115.374 F7800.000
G1 E3.00000 F1800.00000
G1 X82.176 Y115.334 E3.00678 F1080.000
G1 X82.176 Y114.314 E3.12918
G1 X83.236 Y115.374 E3.30907
G1 X84.257 Y115.374 E3.43147
G1 X82.176 Y113.293 E3.78446
G1 X82.176 Y112.273 E3.90686
G1 X85.277 Y115.374 E4.43294
G1 X86.297 Y115.374 E4.55535
G1 X82.176 Y111.253 E5.25453
G1 X82.176 Y110.233 E5.37694
G1 X87.317 Y115.374 E6.24923
G1 X88.337 Y115.374 E6.37163
G1 X82.176 Y109.213 E7.41702
G1 X82.176 Y108.192 E7.53942
G1 X89.358 Y115.374 E8.75791
G1 X90.378 Y115.374 E8.88032
G1 X82.176 Y107.172 E10.27191
G1 X82.176 Y106.152 E10.39431
G1 X91.398 Y115.374 E11.95901
G1 X92.418 Y115.374 E12.08141
G1 X82.176 Y105.132 E13.81921
G1 X82.176 Y104.111 E13.94161
G1 X93.439 Y115.374 E15.85251
G1 X94.459 Y115.374 E15.97491
G1 X82.176 Y103.091 E18.05891
G1 X82.176 Y102.071 E18.18131
G1 X95.479 Y115.374 E20.43842
G1 X96.499 Y115.374 E20.56082
G1 X82.176 Y101.051 E22.99102
G1 X82.176 Y100.030 E23.11343
G1 X97.520 Y115.374 E25.71673
G1 X98.540 Y115.374 E25.83913
G1 X82.176 Y99.010 E28.61554
G1 X82.176 Y97.990 E28.73794
G1 X99.560 Y115.374 E31.68745
G1 X100.580 Y115.374 E31.80985
G1 X82.176 Y96.970 E34.93246
G1 X82.176 Y95.949 E35.05486
G1 X101.601 Y115.374 E38.35058
G1 X102.621 Y115.374 E38.47298
G1 X82.176 Y94.929 E41.94179
G1 X82.176 Y93.909 E42.06419
G1 X103.641 Y115.374 E45.70611
G1 X104.661 Y115.374 E45.82851
G1 X82.176 Y92.889 E49.64353
G1 X82.176 Y91.868 E49.76593
G1 X105.682 Y115.374 E53.75405
G1 X106.702 Y115.374 E53.87645
G1 X82.176 Y90.848 E58.03767
G1 X82.176 Y89.828 E58.16007
G1 X107.722 Y115.374 E62.49439
G1 X108.742 Y115.374 E62.61680
G1 X82.176 Y88.808 E67.12422
G1 X82.176 Y87.787 E67.24662
G1 X109.763 Y115.374 E71.92715
G1 X110.783 Y115.374 E72.04955
G1 X82.176 Y86.767 E76.90317
G1 X82.176 Y85.747 E77.02558
G1 X111.803 Y115.374 E82.05230
G1 X112.823 Y115.374 E82.17471
G1 X82.176 Y84.727 E87.37453
G1 X83.096 Y84.626 E87.48552
G1 X113.844 Y115.374 E92.70242
G1 X114.864 Y115.374 E92.82483
G1 X84.116 Y84.626 E98.04173
G1 X85.136 Y84.626 E98.16413
G1 X115.884 Y115.374 E103.38103
G1 X116.904 Y115.374 E103.50343
G1 X86.156 Y84.626 E108.72033
G1 X87.177 Y84.626 E108.84273
G1 X117.824 Y115.273 E114.04257
G1 X117.824 Y114.253 E114.16497
G1 X88.197 Y84.626 E119.19170
G1 X89.217 Y84.626 E119.31410
G1 X117.824 Y113.233 E124.16773
G1 X117.824 Y112.213 E124.29014
G1 X90.237 Y84.626 E128.97066
G1 X91.258 Y84.626 E129.09307
G1 X117.824 Y111.192 E133.60049
G1 X117.824 Y110.172 E133.72289
G1 X92.278 Y84.626 E138.05722
G1 X93.298 Y84.626 E138.17962
G1 X117.824 Y109.152 E142.34085
G1 X117.824 Y108.132 E142.46325
G1 X94.318 Y84.626 E146.45137
G1 X95.339 Y84.626 E146.57377
G1 X117.824 Y107.111 E150.38879
G1 X117.824 Y106.091 E150.51119
G1 X96.359 Y84.626 E154.15311
G1 X97.379 Y84.626 E154.27552
G1 X117.824 Y105.071 E157.74433
G1 X117.824 Y104.051 E157.86674
G1 X98.399 Y84.626 E161.16245
G1 X99.420 Y84.626 E161.28485
G1 X117.824 Y103.030 E164.40747
G1 X117.824 Y102.010 E164.52987
G1 X100.440 Y84.626 E167.47938
G1 X101.460 Y84.626 E167.60178
G1 X117.824 Y100.990 E170.37820
G1 X117.824 Y99.970 E170.50060
G1 X102.480 Y84.626 E173.10391
G1 X103.501 Y84.626 E173.22631
G1 X117.824 Y98.949 E175.65652
G1 X117.824 Y97.929 E175.77892
G1 X104.521 Y84.626 E178.03603
G1 X105.541 Y84.626 E178.15843
G1 X117.824 Y96.909 E180.24243
G1 X117.824 Y95.889 E180.36484
G1 X106.561 Y84.626 E182.27574
G1 X107.582 Y84.626 E182.39814
G1 X117.824 Y94.868 E184.13594
G1 X117.824 Y93.848 E184.25835
G1 X108.602 Y84.626 E185.82305
G1 X109.622 Y84.626 E185.94545
G1 X117.824 Y92.828 E187.33705
G1 X117.824 Y91.808 E187.45945
G1 X110.642 Y84.626 E188.67795
G1 X111.662 Y84.626 E188.80035
G1 X117.824 Y90.788 E189.84574
G1 X117.824 Y89.767 E189.96814
G1 X112.683 Y84.626 E190.84044
G1 X113.703 Y84.626 E190.96284
G1 X117.824 Y88.747 E191.66203
G1 X117.824 Y87.727 E191.78444
G1 X114.723 Y84.626 E192.31053
G1 X115.743 Y84.626 E192.43293
G1 X117.824 Y86.707 E192.78592
G1 X117.824 Y85.686 E192.90832
G1 X116.764 Y84.626 E193.08821
G1 X117.784 Y84.626 E193.21061
G1 X117.824 Y84.666 E193.21740
M106 S188.7
G1 E190.21740 F1800.00000
G92 E0
G1 Z0.500 F7800.000
G1 X118.773 Y83.677 F7800.000
G1 E3.00000 F1800.00000
G1 X118.773 Y116.323 E3.89381 F2520.000
G1 X81.227 Y116.323 E4.92177
G1 X81.227 Y83.677 E5.81558
G1 X118.713 Y83.677 E6.84190
G1 X119.431 Y83.019 F7800.000
G1 X119.431 Y116.981 E7.77177 F2520.000
G1 X80.569 Y116.981 E8.83579
G1 X80.569 Y83.019 E9.76566
G1 X119.371 Y83.019 E10.82804
G1 X119.950 Y82.500 F7800.000
G1 X119.950 Y117.500 E11.37887 F1764.000
G1 X80.050 Y117.500 E12.00681
G1 X80.050 Y82.500 E12.55763
G1 X119.890 Y82.500 E13.18463
G1 X119.750 Y82.846 F7800.000
G1 X118.141 Y115.731 F7800.000
G1 X118.181 Y115.691 E13.18619 F3600.000
G1 X118.181 Y114.750 E13.21222
G1 X117.200 Y115.731 E13.25059
G1 X116.259 Y115.731 E13.27661
G1 X118.181 Y113.809 E13.35179
G1 X118.181 Y112.868 E13.37781
G1 X115.318 Y115.731 E13.48979
G1 X114.377 Y115.731 E13.51582
G1 X118.181 Y111.927 E13.66460
G1 X118.181 Y110.986 E13.69063
G1 X113.436 Y115.731 E13.87622
G1 X112.496 Y115.731 E13.90224
G1 X118.181 Y110.046 E14.12464
G1 X118.181 Y109.105 E14.15066
G1 X111.555 Y115.731 E14.40987
G1 X110.614 Y115.731 E14.43589
G1 X118.181 Y108.164 E14.73190
G1 X118.181 Y107.223 E14.75792
G1 X109.673 Y115.731 E15.09073
G1 X108.732 Y115.731 E15.11676
G1 X118.181 Y106.282 E15.48637
G1 X118.181 Y105.341 E15.51240
G1 X107.791 Y115.731 E15.91882
G1 X106.850 Y115.731 E15.94484
G1 X118.181 Y104.400 E16.38807
G1 X118.181 Y103.459 E16.41409
G1 X105.909 Y115.731 E16.89413
G1 X104.969 Y115.731 E16.92015
G1 X118.181 Y102.519 E17.43699
G1 X118.181 Y101.578 E17.46301
G1 X104.028 Y115.731 E18.01665
G1 X103.087 Y115.731 E18.04268
G1 X118.181 Y100.637 E18.63313
G1 X118.181 Y99.696 E18.65915
G1 X102.146 Y115.731 E19.28640
G1 X101.205 Y115.731 E19.31243
G1 X118.181 Y98.755 E19.97648
G1 X118.181 Y97.814 E20.00251
G1 X100.264 Y115.731 E20.70337
G1 X99.323 Y115.731 E20.72940
G1 X118.181 Y96.873 E21.46706
G1 X118.181 Y95.932 E21.49309
G1 X98.382 Y115.731 E22.26756
G1 X97.441 Y115.731 E22.29359
G1 X118.181 Y94.991 E23.10486
G1 X118.181 Y94.051 E23.13089
G1 X96.501 Y115.731 E23.97897
G1 X95.560 Y115.731 E24.00500
G1 X118.181 Y93.110 E24.88988
G1 X118.181 Y92.169 E24.91591
G1 X94.619 Y115.731 E25.83760
G1 X93.678 Y115.731 E25.86363
G1 X118.181 Y91.228 E26.82212
G1 X118.181 Y90.287 E26.84815
G1 X92.737 Y115.731 E27.84345
G1 X91.796 Y115.731 E27.86948
G1 X118.181 Y89.346 E28.90158
G1 X118.181 Y88.405 E28.92761
G1 X90.855 Y115.731 E29.99652
G1 X89.914 Y115.731 E30.02255
G1 X118.181 Y87.464 E31.12827
G1 X118.181 Y86.523 E31.15429
G1 X88.973 Y115.731 E32.29681
G1 X88.033 Y115.731 E32.32284
G1 X118.181 Y85.583 E33.50217
G1 X118.181 Y84.642 E33.52819
G1 X87.092 Y115.731 E34.74433
G1 X86.151 Y115.731 E34.77035
G1 X117.613 Y84.269 E36.00106
G1 X116.672 Y84.269 E36.02708
G1 X85.210 Y115.731 E37.25779
G1 X84.269 Y115.731 E37.28382
G1 X115.731 Y84.269 E38.51453
G1 X114.790 Y84.269 E38.54055
G1 X83.328 Y115.731 E39.77126
G1 X82.387 Y115.731 E39.79729
G1 X113.849 Y84.269 E41.02800
G1 X112.908 Y84.269 E41.05402
G1 X81.819 Y115.358 E42.27015
G1 X81.819 Y114.417 E42.29618
G1 X111.967 Y84.269 E43.47550
G1 X111.026 Y84.269 E43.50153
G1 X81.819 Y113.476 E44.64405
G1 X81.819 Y112.536 E44.67007
G1 X110.086 Y84.269 E45.77579
G1 X109.145 Y84.269 E45.80181
G1 X81.819 Y111.595 E46.87072
G1 X81.819 Y110.654 E46.89675
G1 X108.204 Y84.269 E47.92885
G1 X107.263 Y84.269 E47.95487
G1 X81.819 Y109.713 E48.95017
G1 X81.819 Y108.772 E48.97620
G1 X106.322 Y84.269 E49.93469
G1 X105.381 Y84.269 E49.96072
G1 X81.819 Y107.831 E50.88241
G1 X81.819 Y106.890 E50.90843
G1 X104.440 Y84.269 E51.79332
G1 X103.499 Y84.269 E51.81934
G1 X81.819 Y105.949 E52.66742
G1 X81.819 Y105.008 E52.69345
G1 X102.558 Y84.269 E53.50472
G1 X101.618 Y84.269 E53.53074
G1 X81.819 Y104.068 E54.30521
G1 X81.819 Y103.127 E54.33124
G1 X100.677 Y84.269 E55.06890
G1 X99.736 Y84.269 E55.09493
G1 X81.819 Y102.186 E55.79579
G1 X81.819 Y101.245 E55.82181
G1 X98.795 Y84.269 E56.48586
G1 X97.854 Y84.269 E56.51189
G1 X81.819 Y100.304 E57.13914
G1 X81.819 Y99.363 E57.16516
G1 X96.913 Y84.269 E57.75561
G1 X95.972 Y84.269 E57.78163
G1 X81.819 Y98.422 E58.33527
G1 X81.819 Y97.481 E58.36129
G1 X95.031 Y84.269 E58.87813
G1 X94.091 Y84.269 E58.90415
G1 X81.819 Y96.541 E59.38418
G1 X81.819 Y95.600 E59.41020
G1 X93.150 Y84.269 E59.85343
G1 X92.209 Y84.269 E59.87945
G1 X81.819 Y94.659 E60.28587
G1 X81.819 Y93.718 E60.31190
G1 X91.268 Y84.269 E60.68151
G1 X90.327 Y84.269 E60.70753
G1 X81.819 Y92.777 E61.04034
G1 X81.819 Y91.836 E61.06637
G1 X89.386 Y84.269 E61.36237
G1 X88.445 Y84.269 E61.38839
G1 X81.819 Y90.895 E61.64759
G1 X81.819 Y89.954 E61.67361
G1 X87.504 Y84.269 E61.89601
G1 X86.563 Y84.269 E61.92203
G1 X81.819 Y89.013 E62.10762
G1 X81.819 Y88.073 E62.13364
G1 X85.623 Y84.269 E62.28243
G1 X84.682 Y84.269 E62.30845
G1 X81.819 Y87.132 E62.42043
G1 X81.819 Y86.191 E62.44645
G1 X83.741 Y84.269 E62.52162
G1 X82.800 Y84.269 E62.54765
G1 X81.819 Y85.250 E62.58602
G1 X81.819 Y84.309 E62.61204
G1 X81.859 Y84.269 E62.61360
G1 E59.61360 F1800.00000
G92 E0
G1 Z0.600 F7800.000
G1 X81.727 Y101.673 F7800.000
G1 E3.00000 F1800.00000
G1 X81.227 Y101.673 E3.01369 F2520.000
G1 X81.227 Y83.677 E3.50640
G1 X118.773 Y83.677 E4.53436
G1 X118.773 Y116.323 E5.42817
G1 X81.227 Y116.323 E6.45613
G1 X81.227 Y114.927 E6.49435
G1 X81.727 Y114.927 E6.50804
G1 X81.727 Y101.733 E6.86928
G1 X81.069 Y102.331 F7800.000
G1 X80.569 Y102.331 E6.88297 F2520.000
G1 X80.569 Y83.019 E7.41174
G1 X119.431 Y83.019 E8.47576
G1 X119.431 Y116.981 E9.40563
G1 X80.569 Y116.981 E10.46965
G1 X80.569 Y114.269 E10.54393
G1 X81.069 Y114.269 E10.55762
G1 X81.069 Y102.391 E10.88280
G1 X80.550 Y102.850 F7800.000
G1 X80.050 Y102.850 E10.89067 F1764.000
G1 X80.050 Y82.500 E11.21093
G1 X119.950 Y82.500 E11.83887
G1 X119.950 Y117.500 E12.38970
G1 X80.050 Y117.500 E13.01764
G1 X80.050 Y113.750 E13.07666
G1 X80.550 Y113.750 E13.08453
G1 X80.550 Y110.850 E13.13017
G1 X80.050 Y110.850 E13.13803
G1 X80.050 Y109.750 E13.15535
G1 X80.550 Y109.750 E13.16321
G1 X80.550 Y106.850 E13.20885
G1 X80.050 Y106.850 E13.21672
G1 X80.050 Y105.750 E13.23403
G1 X80.550 Y105.750 E13.24190
G1 X80.550 Y102.910 E13.28660
G1 X80.550 Y102.450 F7800.000
G1 X82.319 Y102.078 F7800.000
G1 X95.972 Y115.731 E13.82068 F3600.000
G1 X95.031 Y115.731 E13.84670
G1 X82.319 Y103.019 E14.34398
G1 X82.319 Y103.959 E14.37000
G1 X94.091 Y115.731 E14.83047
G1 X93.150 Y115.731 E14.85650
G1 X82.319 Y104.900 E15.28016
G1 X82.319 Y105.841 E15.30619
G1 X92.209 Y115.731 E15.69305
G1 X91.268 Y115.731 E15.71907
G1 X82.319 Y106.782 E16.06912
G1 X82.319 Y107.723 E16.09515
G1 X90.327 Y115.731 E16.40840
G1 X89.386 Y115.731 E16.43442
G1 X82.319 Y108.664 E16.71087
G1 X82.319 Y109.605 E16.73689
G1 X88.445 Y115.731 E16.97653
G1 X87.504 Y115.731 E17.00256
G1 X82.319 Y110.546 E17.20539
G1 X82.319 Y111.487 E17.23141
G1 X86.563 Y115.731 E17.39744
G1 X85.623 Y115.731 E17.42347
G1 X82.319 Y112.427 E17.55269
G1 X82.319 Y113.368 E17.57872
G1 X84.682 Y115.731 E17.67113
G1 X83.741 Y115.731 E17.69716
G1 X82.319 Y114.309 E17.75277
G1 X82.319 Y115.250 E17.77880
G1 X82.800 Y115.731 E17.79760
G1 X81.859 Y115.731 E17.82363
G1 X81.819 Y115.691 E17.82519
G1 X81.819 Y100.637 F7800.000
G1 X96.913 Y115.731 E18.41563 F3600.000
G1 X97.854 Y115.731 E18.44166
G1 X81.819 Y99.696 E19.06891
G1 X81.819 Y98.755 E19.09493
G1 X98.795 Y115.731 E19.75899
G1 X99.736 Y115.731 E19.78501
G1 X81.819 Y97.814 E20.48587
G1 X81.819 Y96.873 E20.51189
G1 X100.677 Y115.731 E21.24956
G1 X101.618 Y115.731 E21.27558
G1 X81.819 Y95.932 E22.05005
G1 X81.819 Y94.992 E22.07608
G1 X102.558 Y115.731 E22.88735
G1 X103.499 Y115.731 E22.91338
G1 X81.819 Y94.051 E23.76145
G1 X81.819 Y93.110 E23.78748
G1 X104.440 Y115.731 E24.67236
G1 X105.381 Y115.731 E24.69839
G1 X81.819 Y92.169 E25.62008
G1 X81.819 Y91.228 E25.64610
G1 X106.322 Y115.731 E26.60460
G1 X107.263 Y115.731 E26.63062
G1 X81.819 Y90.287 E27.62592
G1 X81.819 Y89.346 E27.65195
G1 X108.204 Y115.731 E28.68405
G1 X109.145 Y115.731 E28.71008
G1 X81.819 Y88.405 E29.77899
G1 X81.819 Y87.464 E29.80501
G1 X110.086 Y115.731 E30.91073
G1 X111.026 Y115.731 E30.93675
G1 X81.819 Y86.524 E32.07927
G1 X81.819 Y85.583 E32.10530
G1 X111.967 Y115.731 E33.28462
G1 X112.908 Y115.731 E33.31065
G1 X81.819 Y84.642 E34.52678
G1 X82.387 Y84.269 E34.54557
G1 X113.849 Y115.731 E35.77628
G1 X114.790 Y115.731 E35.80231
G1 X83.328 Y84.269 E37.03302
G1 X84.269 Y84.269 E37.05904
G1 X115.731 Y115.731 E38.28975
G1 X116.672 Y115.731 E38.31577
G1 X85.210 Y84.269 E39.54648
G1 X86.151 Y84.269 E39.57251
G1 X117.613 Y115.731 E40.80322
G1 X118.181 Y115.358 E40.82201
G1 X87.092 Y84.269 E42.03815
G1 X88.033 Y84.269 E42.06417
G1 X118.181 Y114.417 E43.24350
G1 X118.181 Y113.477 E43.26953
G1 X88.973 Y84.269 E44.41205
G1 X89.914 Y84.269 E44.43807
G1 X118.181 Y112.536 E45.54379
G1 X118.181 Y111.595 E45.56982
G1 X90.855 Y84.269 E46.63873
G1 X91.796 Y84.269 E46.66476
G1 X118.181 Y110.654 E47.69686
G1 X118.181 Y109.713 E47.72289
G1 X92.737 Y84.269 E48.71819
G1 X93.678 Y84.269 E48.74422
G1 X118.181 Y108.772 E49.70271
G1 X118.181 Y107.831 E49.72874
G1 X94.619 Y84.269 E50.65043
G1 X95.560 Y84.269 E50.67646
G1 X118.181 Y106.890 E51.56134
G1 X118.181 Y105.949 E51.58737
G1 X96.501 Y84.269 E52.43545
G1 X97.441 Y84.269 E52.46148
G1 X118.181 Y105.009 E53.27275
G1 X118.181 Y104.068 E53.29878
G1 X98.382 Y84.269 E54.07325
G1 X99.323 Y84.269 E54.09928
G1 X118.181 Y103.127 E54.83694
G1 X118.181 Y102.186 E54.86297
G1 X100.264 Y84.269 E55.56383
G1 X101.205 Y84.269 E55.58985
G1 X118.181 Y101.245 E56.25391
G1 X118.181 Y100.304 E56.27994
G1 X102.146 Y84.269 E56.90719
G1 X103.087 Y84.269 E56.93321
G1 X118.181 Y99.363 E57.52366
G1 X118.181 Y98.422 E57.54969
G1 X104.028 Y84.269 E58.10333
G1 X104.969 Y84.269 E58.12935
G1 X118.181 Y97.481 E58.64619
G1 X118.181 Y96.541 E58.67221
G1 X105.909 Y84.269 E59.15224
G1 X106.850 Y84.269 E59.17827
G1 X118.181 Y95.600 E59.62150
G1 X118.181 Y94.659 E59.64752
G1 X107.791 Y84.269 E60.05394
G1 X108.732 Y84.269 E60.07997
G1 X118.181 Y93.718 E60.44958
G1 X118.181 Y92.777 E60.47561
