; generated by Slic3r 1.2.4 on 2015-01-08 at 21:34:25

; external perimeters extrusion width = 0.40mm
; perimeters extrusion width = 0.48mm
; infill extrusion width = 0.48mm
; solid infill extrusion width = 0.48mm
; top infill extrusion width = 0.48mm

M107
M104 S200 ; set temperature
G28 ; home all pillars
G29 ; z probe
G1 X0 Y0 Z0 ; plug nozzle to stop ooze
M109 S200 ; wait for temperature to be reached
G21 ; set units to millimeters
G90 ; use absolute coordinates
M82 ; use absolute distances for extrusion
G92 E0
G1 E-3.00000 F1800.00000
G92 E0
G1 Z0.400 F7800.000
G1 X74.677 Y78.020 F7800.000
G1 E3.00000 F1800.00000
G1 X76.433 Y76.520 E3.27422 F1080.000
G1 X78.593 Y75.705 E3.54845
G1 X79.850 Y75.586 E3.69842
G1 X120.150 Y75.586 E8.48465
G1 X122.425 Y75.983 E8.75888
G1 X124.430 Y77.127 E9.03310 F1080.000
G1 X125.930 Y78.883 E9.30733
G1 X126.745 Y81.043 E9.58155
G1 X126.864 Y82.300 E9.73152
G1 X126.864 Y117.700 E13.93581
G1 X126.467 Y119.975 E14.21003
G1 X125.323 Y121.980 E14.48426
G1 X123.567 Y123.480 E14.75848
G1 X121.407 Y124.295 E15.03271
G1 X120.150 Y124.414 E15.18267
G1 X79.850 Y124.414 E19.96891
G1 X77.575 Y124.017 E20.24313
G1 X75.570 Y122.873 E20.51736
G1 X74.070 Y121.117 E20.79158
G1 X73.255 Y118.957 E21.06581
G1 X73.136 Y117.700 E21.21577
G1 X73.136 Y82.300 E25.42006
G1 X73.533 Y80.025 E25.69429
G1 X74.647 Y78.072 E25.96139
G1 E22.96139 F1800.00000
G92 E0
G1 X81.678 Y84.128 F7800.000
G1 E3.00000 F1800.00000
G1 X118.322 Y84.128 E7.35196 F1080.000
G1 X118.322 Y115.872 E11.12196
G1 X81.678 Y115.872 E15.47392
G1 X81.678 Y84.188 E19.23680
G1 X80.964 Y83.414 F7800.000
G1 X119.036 Y83.414 E23.75839 F1080.000
G1 X119.036 Y116.586 E27.69803
G1 X80.964 Y116.586 E32.21962
G1 X80.964 Y83.474 E36.15213
G1 X80.250 Y82.700 F7800.000
G1 X119.750 Y82.700 E40.84336 F756.000
G1 X119.750 Y117.300 E44.95263
G1 X80.250 Y117.300 E49.64386
G1 X80.250 Y82.760 E53.74601
G1 X80.596 Y82.900 F7800.000
G1 E50.74601 F1800.00000
G92 E0
G1 X82.216 Y115.374 F7800.000
G1 E3.00000 F1800.00000
G1 X82.176 Y115.334 E3.00678 F1080.000
G1 X82.176 Y114.314 E3.12918
G1 X83.236 Y115.374 E3.30907
G1 X84.257 Y115.374 E3.43147
G1 X82.176 Y113.293 E3.78446
G1 X82.176 Y112.273 E3.90686
G1 X85.277 Y115.374 E4.43294
G1 X86.297 Y115.374 E4.55535
G1 X82.176 Y111.253 E5.25453
G1 X82.176 Y110.233 E5.37694
G1 X87.317 Y115.374 E6.24923
G1 X88.337 Y115.374 E6.37163
G1 X82.176 Y109.213 E7.41702
G1 X82.176 Y108.192 E7.53942
G1 X89.358 Y115.374 E8.75791
G1 X90.378 Y115.374 E8.88032
G1 X82.176 Y107.172 E10.27191
G1 X82.176 Y106.152 E10.39431
G1 X91.398 Y115.374 E11.95901
G1 X92.418 Y115.374 E12.08141
G1 X82.176 Y105.132 E13.81921
G1 X82.176 Y104.111 E13.94161
G1 X93.439 Y115.374 E15.85251
G1 X94.459 Y115.374 E15.97491
G1 X82.176 Y103.091 E18.05891
G1 X82.176 Y102.071 E18.18131
G1 X95.479 Y115.374 E20.43842
G1 X96.499 Y115.374 E20.56082
G1 X82.176 Y101.051 E22.99102
G1 X82.176 Y100.030 E23.11343
G1 X97.520 Y115.374 E25.71673
G1 X98.540 Y115.374 E25.83913
G1 X82.176 Y99.010 E28.61554
G1 X82.176 Y97.990 E28.73794
G1 X99.560 Y115.374 E31.68745
G1 X100.580 Y115.374 E31.80985
G1 X82.176 Y96.970 E34.93246
G1 X82.176 Y95.949 E35.05486
G1 X101.601 Y115.374 E38.35058
G1 X102.621 Y115.374 E38.47298
G1 X82.176 Y94.929 E41.94179
G1 X82.176 Y93.909 E42.06419
G1 X103.641 Y115.374 E45.70611
G1 X104.661 Y115.374 E45.82851
G1 X82.176 Y92.889 E49.64353
G1 X82.176 Y91.868 E49.76593
G1 X105.682 Y115.374 E53.75405
G1 X106.702 Y115.374 E53.87645
G1 X82.176 Y90.848 E58.03767
G1 X82.176 Y89.828 E58.16007
G1 X107.722 Y115.374 E62.49439
G1 X108.742 Y115.374 E62.61680
G1 X82.176 Y88.808 E67.12422
G1 X82.176 Y87.787 E67.24662
G1 X109.763 Y115.374 E71.92715
G1 X110.783 Y115.374 E72.04955
G1 X82.176 Y86.767 E76.90317
G1 X82.176 Y85.747 E77.02558
G1 X111.803 Y115.374 E82.05230
G1 X112.823 Y115.374 E82.17471
G1 X82.176 Y84.727 E87.37453
G1 X83.096 Y84.626 E87.48552
G1 X113.844 Y115.374 E92.70242
G1 X114.864 Y115.374 E92.82483
G1 X84.116 Y84.626 E98.04173
G1 X85.136 Y84.626 E98.16413
G1 X115.884 Y115.374 E103.38103
G1 X116.904 Y115.374 E103.50343
G1 X86.156 Y84.626 E108.72033
G1 X87.177 Y84.626 E108.84273
G1 X117.824 Y115.273 E114.04257
G1 X117.824 Y114.253 E114.16497
G1 X88.197 Y84.626 E119.19170
G1 X89.217 Y84.626 E119.31410
G1 X117.824 Y113.233 E124.16773
G1 X117.824 Y112.213 E124.29014
G1 X90.237 Y84.626 E128.97066
G1 X91.258 Y84.626 E129.09307
G1 X117.824 Y111.192 E133.60049
G1 X117.824 Y110.172 E133.72289
G1 X92.278 Y84.626 E138.05722
G1 X93.298 Y84.626 E138.17962
G1 X117.824 Y109.152 E142.34085
G1 X117.824 Y108.132 E142.46325
G1 X94.318 Y84.626 E146.45137
G1 X95.339 Y84.626 E146.57377
G1 X117.824 Y107.111 E150.38879
G1 X117.824 Y106.091 E150.51119
G1 X96.359 Y84.626 E154.15311
G1 X97.379 Y84.626 E154.27552
G1 X117.824 Y105.071 E157.74433
G1 X117.824 Y104.051 E157.86674
G1 X98.399 Y84.626 E161.16245
G1 X99.420 Y84.626 E161.28485
G1 X117.824 Y103.030 E164.40747
G1 X117.824 Y102.010 E164.52987
G1 X100.440 Y84.626 E167.47938
G1 X101.460 Y84.626 E167.60178
G1 X117.824 Y100.990 E170.37820
G1 X117.824 Y99.970 E170.50060
G1 X102.480 Y84.626 E173.10391
G1 X103.501 Y84.626 E173.22631
G1 X117.824 Y98.949 E175.65652
G1 X117.824 Y97.929 E175.77892
G1 X104.521 Y84.626 E178.03603
G1 X105.541 Y84.626 E178.15843
G1 X117.824 Y96.909 E180.24243
G1 X117.824 Y95.889 E180.36484
G1 X106.561 Y84.626 E182.27574
G1 X107.582 Y84.626 E182.39814
G1 X117.824 Y94.868 E184.13594
G1 X117.824 Y93.848 E184.25835
G1 X108.602 Y84.626 E185.82305
G1 X109.622 Y84.626 E185.94545
G1 X117.824 Y92.828 E187.33705
G1 X117.824 Y91.808 E187.45945
G1 X110.642 Y84.626 E188.67795
G1 X111.662 Y84.626 E188.80035
G1 X117.824 Y90.788 E189.84574
G1 X117.824 Y89.767 E189.96814
G1 X112.683 Y84.626 E190.84044
G1 X113.703 Y84.626 E190.96284
G1 X117.824 Y88.747 E191.66203
G1 X117.824 Y87.727 E191.78444
G1 X114.723 Y84.626 E192.31053
G1 X115.743 Y84.626 E192.43293
G1 X117.824 Y86.707 E192.78592
G1 X117.824 Y85.686 E192.90832
G1 X116.764 Y84.626 E193.08821
G1 X117.784 Y84.626 E193.21061
G1 X117.824 Y84.666 E193.21740
M106 S94.35
G1 E190.21740 F1800.00000
G92 E0
G1 Z0.700 F7800.000
G1 X81.346 Y102.054 F7800.000
G1 E3.00000 F1800.00000
G1 X80.846 Y102.054 E3.02612 F3600.000
G1 X80.846 Y83.296 E4.00612
G1 X119.154 Y83.296 E6.00750
G1 X119.154 Y116.704 E7.75289
G1 X80.846 Y116.704 E9.75427
G1 X80.846 Y114.546 E9.86700
G1 X81.346 Y114.546 E9.89313
G1 X81.346 Y102.114 E10.54265
G1 X80.927 Y102.473 F7800.000
G1 X80.427 Y102.473 E10.56877 F3600.000
G1 X80.427 Y82.877 E11.59253
G1 X119.573 Y82.877 E13.63769
G1 X119.573 Y117.123 E15.42684
G1 X80.427 Y117.123 E17.47199
G1 X80.427 Y114.127 E17.62849
G1 X80.927 Y114.127 E17.65462
G1 X80.927 Y110.473 E17.84554
G1 X80.427 Y110.473 E17.87167
G1 X80.427 Y110.127 E17.88972
G1 X80.927 Y110.127 E17.91584
G1 X80.927 Y106.473 E18.10677
G1 X80.427 Y106.473 E18.13289
G1 X80.427 Y106.127 E18.15094
G1 X80.927 Y106.127 E18.17706
G1 X80.927 Y102.533 E18.36486
G1 X80.550 Y102.850 F7800.000
G1 X80.050 Y102.850 E18.38579 F2520.000
G1 X80.050 Y82.500 E19.23765
G1 X119.950 Y82.500 E20.90787
G1 X119.950 Y117.500 E22.37298
G1 X80.050 Y117.500 E24.04321
G1 X80.050 Y113.750 E24.20019
G1 X80.550 Y113.750 E24.22112
G1 X80.550 Y110.850 E24.34251
G1 X80.050 Y110.850 E24.36344
G1 X80.050 Y109.750 E24.40949
G1 X80.550 Y109.750 E24.43042
G1 X80.550 Y106.850 E24.55181
G1 X80.050 Y106.850 E24.57274
G1 X80.050 Y105.750 E24.61879
G1 X80.550 Y105.750 E24.63972
G1 X80.550 Y102.910 E24.75860
G1 X80.550 Y102.450 F7800.000
G1 X81.130 Y83.620 F7800.000
G1 X81.170 Y83.580 E24.76156 F3600.000
G1 X81.762 Y83.580 E24.79251
G1 X81.130 Y84.212 E24.83924
G1 X81.130 Y84.805 E24.87020
G1 X82.355 Y83.580 E24.96071
G1 X82.947 Y83.580 E24.99167
G1 X81.130 Y85.397 E25.12595
G1 X81.130 Y85.990 E25.15691
G1 X83.540 Y83.580 E25.33497
G1 X84.132 Y83.580 E25.36593
G1 X81.130 Y86.582 E25.58777
G1 X81.130 Y87.174 E25.61873
G1 X84.724 Y83.580 E25.88435
G1 X85.317 Y83.580 E25.91530
G1 X81.130 Y87.767 E26.22470
G1 X81.130 Y88.359 E26.25565
G1 X85.909 Y83.580 E26.60883
G1 X86.502 Y83.580 E26.63978
G1 X81.130 Y88.952 E27.03673
G1 X81.130 Y89.544 E27.06769
G1 X87.094 Y83.580 E27.50842
G1 X87.687 Y83.580 E27.53937
G1 X81.130 Y90.137 E28.02388
G1 X81.130 Y90.729 E28.05484
G1 X88.279 Y83.580 E28.58312
G1 X88.872 Y83.580 E28.61407
G1 X81.130 Y91.322 E29.18614
G1 X81.130 Y91.914 E29.21709
G1 X89.464 Y83.580 E29.83293
G1 X90.056 Y83.580 E29.86389
G1 X81.130 Y92.506 E30.52350
G1 X81.130 Y93.099 E30.55446
G1 X90.649 Y83.580 E31.25785
G1 X91.241 Y83.580 E31.28881
G1 X81.130 Y93.691 E32.03598
G1 X81.130 Y94.284 E32.06693
G1 X91.834 Y83.580 E32.85788
G1 X92.426 Y83.580 E32.88883
G1 X81.130 Y94.876 E33.72356
G1 X81.130 Y95.469 E33.75452
G1 X93.019 Y83.580 E34.63302
G1 X93.611 Y83.580 E34.66397
G1 X81.130 Y96.061 E35.58625
G1 X81.130 Y96.654 E35.61721
G1 X94.204 Y83.580 E36.58327
G1 X94.796 Y83.580 E36.61422
G1 X81.130 Y97.246 E37.62406
G1 X81.130 Y97.838 E37.65501
G1 X95.388 Y83.580 E38.70863
G1 X95.981 Y83.580 E38.73958
G1 X81.130 Y98.431 E39.83697
G1 X81.130 Y99.023 E39.86793
G1 X96.573 Y83.580 E41.00909
G1 X97.166 Y83.580 E41.04005
G1 X81.130 Y99.616 E42.22499
G1 X81.130 Y100.208 E42.25595
G1 X97.758 Y83.580 E43.48467
G1 X98.351 Y83.580 E43.51563
G1 X81.130 Y100.801 E44.78812
G1 X81.130 Y101.393 E44.81908
G1 X98.943 Y83.580 E46.13536
G1 X99.536 Y83.580 E46.16631
G1 X81.345 Y101.770 E47.51045
G1 X81.630 Y102.078 E47.53236
G1 X100.128 Y83.580 E48.89924
G1 X100.720 Y83.580 E48.93020
G1 X81.630 Y102.670 E50.34086
G1 X81.630 Y103.263 E50.37182
G1 X101.313 Y83.580 E51.82626
G1 X101.905 Y83.580 E51.85721
G1 X81.630 Y103.855 E53.35543
G1 X81.630 Y104.448 E53.38638
G1 X102.498 Y83.580 E54.92838
G1 X103.090 Y83.580 E54.95933
G1 X81.630 Y105.040 E56.54511
G1 X81.630 Y105.633 E56.57606
G1 X103.683 Y83.580 E58.20561
G1 X104.275 Y83.580 E58.23657
G1 X81.630 Y106.225 E59.90989
G1 X81.630 Y106.818 E59.94085
G1 X104.868 Y83.580 E61.65795
G1 X105.460 Y83.580 E61.68891
G1 X81.630 Y107.410 E63.44979
G1 X81.630 Y108.002 E63.48074
G1 X106.052 Y83.580 E65.28540
G1 X106.645 Y83.580 E65.31636
G1 X81.630 Y108.595 E67.16479
G1 X81.630 Y109.187 E67.19575
G1 X107.237 Y83.580 E69.08796
G1 X107.830 Y83.580 E69.11892
G1 X81.630 Y109.780 E71.05491
G1 X81.630 Y110.372 E71.08586
G1 X108.422 Y83.580 E73.06563
G1 X109.015 Y83.580 E73.09659
G1 X81.630 Y110.965 E75.12013
G1 X81.630 Y111.557 E75.15109
G1 X109.607 Y83.580 E77.21841
G1 X110.200 Y83.580 E77.24937
G1 X81.630 Y112.150 E79.36047
G1 X81.630 Y112.742 E79.39142
G1 X110.792 Y83.580 E81.54630
G1 X111.384 Y83.580 E81.57726
G1 X81.630 Y113.334 E83.77591
G1 X81.630 Y113.927 E83.80687
G1 X111.977 Y83.580 E86.04930
G1 X112.569 Y83.580 E86.08025
G1 X81.130 Y115.019 E88.40341
G1 X81.130 Y115.612 E88.43437
G1 X113.162 Y83.580 E90.80130
G1 X113.754 Y83.580 E90.83225
G1 X81.130 Y116.204 E93.24297
G1 X81.506 Y116.420 E93.26564
G1 X114.347 Y83.580 E95.69231
G1 X114.939 Y83.580 E95.72327
G1 X82.099 Y116.420 E98.14994
G1 X82.691 Y116.420 E98.18090
G1 X115.532 Y83.580 E100.60757
G1 X116.124 Y83.580 E100.63852
G1 X83.284 Y116.420 E103.06520
G1 X83.876 Y116.420 E103.09615
G1 X116.716 Y83.580 E105.52282
G1 X117.309 Y83.580 E105.55378
G1 X84.468 Y116.420 E107.98045
G1 X85.061 Y116.420 E108.01141
G1 X117.901 Y83.580 E110.43808
G1 X118.494 Y83.580 E110.46903
G1 X85.653 Y116.420 E112.89571
G1 X86.246 Y116.420 E112.92666
G1 X118.870 Y83.796 E115.33737
G1 X118.870 Y84.388 E115.36833
G1 X86.838 Y116.420 E117.73526
G1 X87.431 Y116.420 E117.76622
G1 X118.870 Y84.981 E120.08938
G1 X118.870 Y85.573 E120.12033
G1 X88.023 Y116.420 E122.39971
G1 X88.616 Y116.420 E122.43067
G1 X118.870 Y86.166 E124.66627
G1 X118.870 Y86.758 E124.69722
G1 X89.208 Y116.420 E126.88905
G1 X89.800 Y116.420 E126.92000
G1 X118.870 Y87.350 E129.06805
G1 X118.870 Y87.943 E129.09901
G1 X90.393 Y116.420 E131.20328
G1 X90.985 Y116.420 E131.23423
G1 X118.870 Y88.535 E133.29473
G1 X118.870 Y89.128 E133.32568
G1 X91.578 Y116.420 E135.34240
G1 X92.170 Y116.420 E135.37335
G1 X118.870 Y89.720 E137.34629
G1 X118.870 Y90.313 E137.37724
G1 X92.763 Y116.420 E139.30641
G1 X93.355 Y116.420 E139.33736
G1 X118.870 Y90.905 E141.22274
G1 X118.870 Y91.498 E141.25370
G1 X93.948 Y116.420 E143.09530
G1 X94.540 Y116.420 E143.12626
G1 X118.870 Y92.090 E144.92409
G1 X118.870 Y92.682 E144.95504
G1 X95.132 Y116.420 E146.70910
G1 X95.725 Y116.420 E146.74005
G1 X118.870 Y93.275 E148.45032
G1 X118.870 Y93.867 E148.48128
G1 X96.317 Y116.420 E150.14778
G1 X96.910 Y116.420 E150.17873
G1 X118.870 Y94.460 E151.80145
G1 X118.870 Y95.052 E151.83241
G1 X97.502 Y116.420 E153.41135
G1 X98.095 Y116.420 E153.44230
G1 X118.870 Y95.645 E154.97747
G1 X118.870 Y96.237 E155.00842
G1 X98.687 Y116.420 E156.49981
G1 X99.280 Y116.420 E156.53076
G1 X118.870 Y96.830 E157.97837
G1 X118.870 Y97.422 E158.00933
G1 X99.872 Y116.420 E159.41316
G1 X100.464 Y116.420 E159.44412
G1 X118.870 Y98.014 E160.80417
G1 X118.870 Y98.607 E160.83513
G1 X101.057 Y116.420 E162.15140
G1 X101.649 Y116.420 E162.18236
G1 X118.870 Y99.199 E163.45486
G1 X118.870 Y99.792 E163.48581
G1 X102.242 Y116.420 E164.71454
G1 X102.834 Y116.420 E164.74549
G1 X118.870 Y100.384 E165.93044
G1 X118.870 Y100.977 E165.96139
G1 X103.427 Y116.420 E167.10256
G1 X104.019 Y116.420 E167.13351
G1 X118.870 Y101.569 E168.23090
G1 X118.870 Y102.162 E168.26186
G1 X104.612 Y116.420 E169.31547
G1 X105.204 Y116.420 E169.34643
G1 X118.870 Y102.754 E170.35626
G1 X118.870 Y103.346 E170.38722
G1 X105.796 Y116.420 E171.35328
G1 X106.389 Y116.420 E171.38423
G1 X118.870 Y103.939 E172.30651
G1 X118.870 Y104.531 E172.33747
G1 X106.981 Y116.420 E173.21597
G1 X107.574 Y116.420 E173.24693
G1 X118.870 Y105.124 E174.08165
G1 X118.870 Y105.716 E174.11261
G1 X108.166 Y116.420 E174.90356
G1 X108.759 Y116.420 E174.93451
G1 X118.870 Y106.309 E175.68168
G1 X118.870 Y106.901 E175.71264
G1 X109.351 Y116.420 E176.41603
G1 X109.944 Y116.420 E176.44699
G1 X118.870 Y107.494 E177.10660
G1 X118.870 Y108.086 E177.13756
G1 X110.536 Y116.420 E177.75340
G1 X111.128 Y116.420 E177.78435
G1 X118.870 Y108.678 E178.35642
G1 X118.870 Y109.271 E178.38737
G1 X111.721 Y116.420 E178.91566
G1 X112.313 Y116.420 E178.94661
G1 X118.870 Y109.863 E179.43112
G1 X118.870 Y110.456 E179.46207
G1 X112.906 Y116.420 E179.90280
G1 X113.498 Y116.420 E179.93376
G1 X118.870 Y111.048 E180.33071
G1 X118.870 Y111.641 E180.36167
G1 X114.091 Y116.420 E180.71484
G1 X114.683 Y116.420 E180.74580
G1 X118.870 Y112.233 E181.05519
G1 X118.870 Y112.826 E181.08615
G1 X115.276 Y116.420 E181.35177
G1 X115.868 Y116.420 E181.38272
G1 X118.870 Y113.418 E181.60457
G1 X118.870 Y114.010 E181.63552
G1 X116.460 Y116.420 E181.81359
G1 X117.053 Y116.420 E181.84454
G1 X118.870 Y114.603 E181.97883
G1 X118.870 Y115.195 E182.00979
G1 X117.645 Y116.420 E182.10030
G1 X118.238 Y116.420 E182.13125
G1 X118.870 Y115.788 E182.17798
G1 X118.870 Y116.380 E182.20894
G1 X118.830 Y116.420 E182.21190
G1 E179.21190 F1800.00000
G92 E0
G1 Z1.000 F7800.000
G1 X81.346 Y114.546 F7800.000
G1 E3.00000 F1800.00000
G1 X81.346 Y102.054 E3.65266 F3600.000
G1 X80.846 Y102.054 E3.67878
G1 X80.846 Y83.296 E4.65878
G1 X119.154 Y83.296 E6.66016
G1 X119.154 Y116.704 E8.40554
G1 X80.846 Y116.704 E10.40693
G1 X80.846 Y114.546 E10.51966
G1 X81.286 Y114.546 E10.54265
G1 X80.927 Y114.127 F7800.000
G1 X80.927 Y110.473 E10.73358 F3600.000
G1 X80.427 Y110.473 E10.75970
G1 X80.427 Y110.127 E10.77775
G1 X80.927 Y110.127 E10.80387
G1 X80.927 Y106.473 E10.99480
G1 X80.427 Y106.473 E11.02092
G1 X80.427 Y106.127 E11.03897
G1 X80.927 Y106.127 E11.06510
G1 X80.927 Y102.473 E11.25603
G1 X80.427 Y102.473 E11.28215
G1 X80.427 Y82.877 E12.30591
G1 X119.573 Y82.877 E14.35107
G1 X119.573 Y117.123 E16.14022
G1 X80.427 Y117.123 E18.18537
G1 X80.427 Y114.127 E18.34187
G1 X80.867 Y114.127 E18.36486
G1 X80.550 Y113.750 F7800.000
G1 X80.550 Y110.850 E18.48625 F2520.000
G1 X80.050 Y110.850 E18.50718
G1 X80.050 Y109.750 E18.55323
G1 X80.550 Y109.750 E18.57416
G1 X80.550 Y106.850 E18.69556
G1 X80.050 Y106.850 E18.71649
G1 X80.050 Y105.750 E18.76253
G1 X80.550 Y105.750 E18.78346
G1 X80.550 Y102.850 E18.90486
G1 X80.050 Y102.850 E18.92579
G1 X80.050 Y82.500 E19.77764
