; generated by Slic3r 1.2.4 on 2015-01-13 at 19:21:21

; external perimeters extrusion width = 0.35mm
; perimeters extrusion width = 0.59mm
; infill extrusion width = 0.98mm
; solid infill extrusion width = 0.59mm
; top infill extrusion width = 0.59mm

M107
M190 S85 ; set bed temperature
M104 S230 ; set temperature
G28 ; home all axes
M203 X192 Y208 Z3M203 X192 Y208 Z3 ; Speed limits to minimize skipped steps when moving really fast courtesy of forum.lulzbot.com user 1013
M109 S230 ; wait for temperature to be reached
G21 ; set units to millimeters
G90 ; use absolute coordinates
M82 ; use absolute distances for extrusion
G92 E0
G1 E-1.70000 F1800.00000
G92 E0
G1 Z0.350 F7200.000
G1 X74.765 Y78.053 F7200.000
G1 E1.70000 F1800.00000
G1 X76.518 Y76.574 E1.77647 F1080.000
G1 X78.670 Y75.781 E1.85293
G1 X79.850 Y75.675 E1.89243
G1 X120.150 Y75.675 E3.23609
G1 X122.409 Y76.072 E3.31256
G1 X124.397 Y77.215 E3.38903 F1080.000
G1 X125.876 Y78.968 E3.46549
G1 X126.669 Y81.120 E3.54196
G1 X126.775 Y82.300 E3.58145
G1 X126.775 Y117.700 E4.76175
G1 X126.378 Y119.959 E4.83821
G1 X125.235 Y121.947 E4.91468
G1 X123.482 Y123.426 E4.99115
G1 X121.330 Y124.219 E5.06761
G1 X120.150 Y124.325 E5.10711
G1 X79.850 Y124.325 E6.45077
G1 X77.591 Y123.928 E6.52724
G1 X75.603 Y122.785 E6.60371
G1 X74.124 Y121.032 E6.68017
G1 X73.331 Y118.880 E6.75664
G1 X73.225 Y117.700 E6.79613
G1 X73.225 Y82.300 E7.97642
G1 X73.622 Y80.041 E8.05289
G1 X74.739 Y78.099 E8.12761
G1 E6.42761 F1800.00000
G92 E0
G1 X80.200 Y82.650 F7200.000
G1 E1.70000 F1800.00000
G1 X119.800 Y82.650 E3.02032 F1008.000
G1 X119.800 Y117.350 E4.17728
G1 X80.200 Y117.350 E5.49760
G1 X80.200 Y82.702 E6.65280
G1 E4.95280 F1800.00000
G92 E0
G1 X80.633 Y116.877 F7200.000
G1 E1.70000 F1800.00000
G1 X80.673 Y116.917 E1.70188 F1080.000
G1 X81.557 Y116.917 E1.73137
G1 X80.633 Y115.993 E1.77495
G1 X80.633 Y115.109 E1.80443
G1 X82.441 Y116.917 E1.88971
G1 X83.325 Y116.917 E1.91919
G1 X80.633 Y114.225 E2.04616
G1 X80.633 Y113.341 E2.07564
G1 X84.209 Y116.917 E2.24431
G1 X85.093 Y116.917 E2.27379
G1 X80.633 Y112.457 E2.48415
G1 X80.633 Y111.573 E2.51363
G1 X85.977 Y116.917 E2.76569
G1 X86.861 Y116.917 E2.79517
G1 X80.633 Y110.689 E3.08892
G1 X80.633 Y109.805 E3.11841
G1 X87.745 Y116.917 E3.45385
G1 X88.629 Y116.917 E3.48334
G1 X80.633 Y108.921 E3.86048
G1 X80.633 Y108.037 E3.88996
G1 X89.513 Y116.917 E4.30880
G1 X90.397 Y116.917 E4.33828
G1 X80.633 Y107.153 E4.79881
G1 X80.633 Y106.269 E4.82830
G1 X91.281 Y116.917 E5.33052
G1 X92.165 Y116.917 E5.36001
G1 X80.633 Y105.385 E5.90393
G1 X80.633 Y104.501 E5.93341
G1 X93.049 Y116.917 E6.51903
G1 X93.933 Y116.917 E6.54851
G1 X80.633 Y103.617 E7.17582
G1 X80.633 Y102.733 E7.20531
G1 X94.817 Y116.917 E7.87432
G1 X95.701 Y116.917 E7.90380
G1 X80.633 Y101.849 E8.61450
G1 X80.633 Y100.965 E8.64399
G1 X96.585 Y116.917 E9.39638
G1 X97.469 Y116.917 E9.42587
G1 X80.633 Y100.081 E10.21996
G1 X80.633 Y99.197 E10.24944
G1 X98.353 Y116.917 E11.08523
G1 X99.237 Y116.917 E11.11472
G1 X80.633 Y98.313 E11.99220
G1 X80.633 Y97.429 E12.02168
G1 X100.121 Y116.917 E12.94086
G1 X101.005 Y116.917 E12.97035
G1 X80.633 Y96.545 E13.93122
G1 X80.633 Y95.661 E13.96070
G1 X101.889 Y116.917 E14.96327
G1 X102.773 Y116.917 E14.99276
G1 X80.633 Y94.777 E16.03702
G1 X80.633 Y93.893 E16.06650
G1 X103.657 Y116.917 E17.15247
G1 X104.541 Y116.917 E17.18195
G1 X80.633 Y93.009 E18.30960
G1 X80.633 Y92.125 E18.33909
G1 X105.425 Y116.917 E19.50844
G1 X106.309 Y116.917 E19.53792
G1 X80.633 Y91.241 E20.74897
G1 X80.633 Y90.357 E20.77845
G1 X107.193 Y116.917 E22.03119
G1 X108.077 Y116.917 E22.06067
G1 X80.633 Y89.473 E23.35511
G1 X80.633 Y88.589 E23.38459
G1 X108.961 Y116.917 E24.72073
G1 X109.845 Y116.917 E24.75021
G1 X80.633 Y87.705 E26.12804
G1 X80.633 Y86.821 E26.15752
G1 X110.729 Y116.917 E27.57704
G1 X111.613 Y116.917 E27.60652
G1 X80.633 Y85.937 E29.06774
G1 X80.633 Y85.053 E29.09722
G1 X112.497 Y116.917 E30.60014
G1 X113.381 Y116.917 E30.62962
G1 X80.633 Y84.169 E32.17423
G1 X80.633 Y83.285 E32.20371
G1 X114.265 Y116.917 E33.79001
G1 X115.149 Y116.917 E33.81950
G1 X81.315 Y83.083 E35.41533
G1 X82.199 Y83.083 E35.44481
G1 X116.033 Y116.917 E37.04064
G1 X116.917 Y116.917 E37.07013
G1 X83.083 Y83.083 E38.66596
G1 X83.967 Y83.083 E38.69544
G1 X117.801 Y116.917 E40.29127
G1 X118.685 Y116.917 E40.32076
G1 X84.851 Y83.083 E41.91659
G1 X85.735 Y83.083 E41.94607
G1 X119.367 Y116.715 E43.53238
G1 X119.367 Y115.831 E43.56186
G1 X86.619 Y83.083 E45.10647
G1 X87.503 Y83.083 E45.13595
G1 X119.367 Y114.947 E46.63887
G1 X119.367 Y114.063 E46.66835
G1 X88.387 Y83.083 E48.12957
G1 X89.271 Y83.083 E48.15905
G1 X119.367 Y113.179 E49.57858
G1 X119.367 Y112.295 E49.60806
G1 X90.155 Y83.083 E50.98589
G1 X91.039 Y83.083 E51.01537
G1 X119.367 Y111.411 E52.35150
G1 X119.367 Y110.527 E52.38099
G1 X91.923 Y83.083 E53.67543
G1 X92.807 Y83.083 E53.70491
G1 X119.367 Y109.643 E54.95765
G1 X119.367 Y108.759 E54.98714
G1 X93.691 Y83.083 E56.19818
G1 X94.575 Y83.083 E56.22767
G1 X119.367 Y107.875 E57.39702
G1 X119.367 Y106.991 E57.42650
G1 X95.459 Y83.083 E58.55416
G1 X96.343 Y83.083 E58.58364
G1 X119.367 Y106.107 E59.66961
G1 X119.367 Y105.223 E59.69909
G1 X97.227 Y83.083 E60.74336
G1 X98.111 Y83.083 E60.77284
G1 X119.367 Y104.339 E61.77541
G1 X119.367 Y103.455 E61.80489
G1 X98.995 Y83.083 E62.76577
G1 X99.879 Y83.083 E62.79525
G1 X119.367 Y102.571 E63.71443
G1 X119.367 Y101.687 E63.74392
G1 X100.763 Y83.083 E64.62140
G1 X101.647 Y83.083 E64.65089
G1 X119.367 Y100.803 E65.48668
G1 X119.367 Y99.919 E65.51616
G1 X102.531 Y83.083 E66.31026
G1 X103.415 Y83.083 E66.33974
G1 X119.367 Y99.035 E67.09214
G1 X119.367 Y98.151 E67.12162
G1 X104.299 Y83.083 E67.83233
G1 X105.183 Y83.083 E67.86181
G1 X119.367 Y97.267 E68.53082
G1 X119.367 Y96.383 E68.56031
G1 X106.067 Y83.083 E69.18762
G1 X106.951 Y83.083 E69.21710
G1 X119.367 Y95.499 E69.80272
G1 X119.367 Y94.615 E69.83221
G1 X107.835 Y83.083 E70.37613
G1 X108.719 Y83.083 E70.40561
G1 X119.367 Y93.731 E70.90784
G1 X119.367 Y92.847 E70.93733
G1 X109.603 Y83.083 E71.39786
G1 X110.487 Y83.083 E71.42734
G1 X119.367 Y91.963 E71.84618
G1 X119.367 Y91.079 E71.87567
G1 X111.371 Y83.083 E72.25281
G1 X112.255 Y83.083 E72.28229
G1 X119.367 Y90.195 E72.61774
G1 X119.367 Y89.311 E72.64722
G1 X113.139 Y83.083 E72.94098
G1 X114.023 Y83.083 E72.97046
G1 X119.367 Y88.427 E73.22252
G1 X119.367 Y87.543 E73.25200
G1 X114.907 Y83.083 E73.46236
G1 X115.791 Y83.083 E73.49185
G1 X119.367 Y86.659 E73.66051
G1 X119.367 Y85.775 E73.69000
G1 X116.675 Y83.083 E73.81697
G1 X117.559 Y83.083 E73.84645
G1 X119.367 Y84.891 E73.93173
G1 X119.367 Y84.007 E73.96121
G1 X118.443 Y83.083 E74.00479
G1 X119.327 Y83.083 E74.03428
G1 X119.367 Y83.123 E74.03616
M106 S186.15
G1 E72.33616 F1800.00000
G92 E0
G1 Z0.450 F7200.000
G1 X119.975 Y82.475 F7200.000
G1 E1.70000 F1800.00000
G1 X119.975 Y117.525 E1.87555 F3360.000
G1 X80.025 Y117.525 E2.07563
G1 X80.025 Y82.475 E2.25118
G1 X119.922 Y82.475 E2.45100
G1 X119.452 Y117.042 F7200.000
G1 X119.492 Y117.002 E2.45150 F3600.000
G1 X119.492 Y116.182 E2.45875
G1 X118.632 Y117.042 E2.46951
G1 X117.812 Y117.042 E2.47675
G1 X119.492 Y115.362 E2.49776
G1 X119.492 Y114.542 E2.50501
G1 X116.992 Y117.042 E2.53627
G1 X116.171 Y117.042 E2.54352
G1 X119.492 Y113.721 E2.58503
G1 X119.492 Y112.901 E2.59228
G1 X115.351 Y117.042 E2.64404
G1 X114.531 Y117.042 E2.65129
G1 X119.492 Y112.081 E2.71330
G1 X119.492 Y111.261 E2.72055
G1 X113.711 Y117.042 E2.79282
G1 X112.891 Y117.042 E2.80007
G1 X119.492 Y110.441 E2.88259
G1 X119.492 Y109.621 E2.88984
G1 X112.071 Y117.042 E2.98261
G1 X111.251 Y117.042 E2.98986
G1 X119.492 Y108.801 E3.09288
G1 X119.492 Y107.981 E3.10013
G1 X110.431 Y117.042 E3.21341
G1 X109.611 Y117.042 E3.22066
G1 X119.492 Y107.161 E3.34419
G1 X119.492 Y106.341 E3.35144
G1 X108.791 Y117.042 E3.48522
G1 X107.971 Y117.042 E3.49247
G1 X119.492 Y105.521 E3.63651
G1 X119.492 Y104.701 E3.64376
G1 X107.151 Y117.042 E3.79804
G1 X106.330 Y117.042 E3.80529
G1 X119.492 Y103.880 E3.96983
G1 X119.492 Y103.060 E3.97708
G1 X105.510 Y117.042 E4.15187
G1 X104.690 Y117.042 E4.15912
G1 X119.492 Y102.240 E4.34417
G1 X119.492 Y101.420 E4.35142
G1 X103.870 Y117.042 E4.54671
G1 X103.050 Y117.042 E4.55396
G1 X119.492 Y100.600 E4.75951
G1 X119.492 Y99.780 E4.76676
G1 X102.230 Y117.042 E4.98256
G1 X101.410 Y117.042 E4.98981
G1 X119.492 Y98.960 E5.21587
G1 X119.492 Y98.140 E5.22312
G1 X100.590 Y117.042 E5.45942
G1 X99.770 Y117.042 E5.46667
G1 X119.492 Y97.320 E5.71323
G1 X119.492 Y96.500 E5.72048
G1 X98.950 Y117.042 E5.97729
G1 X98.130 Y117.042 E5.98454
G1 X119.492 Y95.680 E6.25161
G1 X119.492 Y94.860 E6.25886
G1 X97.310 Y117.042 E6.53617
G1 X96.490 Y117.042 E6.54342
G1 X119.492 Y94.040 E6.83099
G1 X119.492 Y93.219 E6.83824
G1 X95.669 Y117.042 E7.13606
G1 X94.849 Y117.042 E7.14331
G1 X119.492 Y92.399 E7.45138
G1 X119.492 Y91.579 E7.45863
G1 X94.029 Y117.042 E7.77696
G1 X93.209 Y117.042 E7.78421
G1 X119.492 Y90.759 E8.11279
G1 X119.492 Y89.939 E8.12004
G1 X92.389 Y117.042 E8.45887
G1 X91.569 Y117.042 E8.46612
G1 X119.492 Y89.119 E8.81520
G1 X119.492 Y88.299 E8.82245
G1 X90.749 Y117.042 E9.18179
G1 X89.929 Y117.042 E9.18904
G1 X119.492 Y87.479 E9.55863
G1 X119.492 Y86.659 E9.56588
G1 X89.109 Y117.042 E9.94572
G1 X88.289 Y117.042 E9.95297
G1 X119.492 Y85.839 E10.34306
G1 X119.492 Y85.019 E10.35031
G1 X87.469 Y117.042 E10.75065
G1 X86.649 Y117.042 E10.75790
G1 X119.492 Y84.199 E11.16850
G1 X119.492 Y83.378 E11.17575
G1 X85.828 Y117.042 E11.59660
G1 X85.008 Y117.042 E11.60385
G1 X119.092 Y82.958 E12.02996
G1 X118.272 Y82.958 E12.03721
G1 X84.188 Y117.042 E12.46331
G1 X83.368 Y117.042 E12.47056
G1 X117.452 Y82.958 E12.89666
G1 X116.632 Y82.958 E12.90391
G1 X82.548 Y117.042 E13.33002
G1 X81.728 Y117.042 E13.33727
G1 X115.812 Y82.958 E13.76337
G1 X114.992 Y82.958 E13.77062
G1 X80.908 Y117.042 E14.19673
G1 X80.508 Y116.621 E14.20185
G1 X114.171 Y82.958 E14.62270
G1 X113.351 Y82.958 E14.62995
G1 X80.508 Y115.801 E15.04055
G1 X80.508 Y114.981 E15.04780
G1 X112.531 Y82.958 E15.44814
G1 X111.711 Y82.958 E15.45539
G1 X80.508 Y114.161 E15.84549
G1 X80.508 Y113.341 E15.85274
G1 X110.891 Y82.958 E16.23258
G1 X110.071 Y82.958 E16.23982
G1 X80.508 Y112.521 E16.60941
G1 X80.508 Y111.701 E16.61666
G1 X109.251 Y82.958 E16.97600
G1 X108.431 Y82.958 E16.98325
G1 X80.508 Y110.881 E17.33233
G1 X80.508 Y110.061 E17.33958
G1 X107.611 Y82.958 E17.67841
G1 X106.791 Y82.958 E17.68566
G1 X80.508 Y109.241 E18.01423
G1 X80.508 Y108.421 E18.02148
G1 X105.971 Y82.958 E18.33981
G1 X105.151 Y82.958 E18.34706
G1 X80.508 Y107.601 E18.65513
G1 X80.508 Y106.780 E18.66238
G1 X104.330 Y82.958 E18.96020
G1 X103.510 Y82.958 E18.96745
G1 X80.508 Y105.960 E19.25502
G1 X80.508 Y105.140 E19.26227
G1 X102.690 Y82.958 E19.53958
G1 X101.870 Y82.958 E19.54683
G1 X80.508 Y104.320 E19.81389
G1 X80.508 Y103.500 E19.82114
G1 X101.050 Y82.958 E20.07795
G1 X100.230 Y82.958 E20.08520
G1 X80.508 Y102.680 E20.33176
G1 X80.508 Y101.860 E20.33901
G1 X99.410 Y82.958 E20.57532
G1 X98.590 Y82.958 E20.58257
G1 X80.508 Y101.040 E20.80862
G1 X80.508 Y100.220 E20.81587
G1 X97.770 Y82.958 E21.03167
G1 X96.950 Y82.958 E21.03892
G1 X80.508 Y99.400 E21.24447
G1 X80.508 Y98.580 E21.25172
G1 X96.130 Y82.958 E21.44701
G1 X95.310 Y82.958 E21.45426
G1 X80.508 Y97.760 E21.63930
G1 X80.508 Y96.939 E21.64655
G1 X94.489 Y82.958 E21.82134
G1 X93.669 Y82.958 E21.82859
G1 X80.508 Y96.119 E21.99313
G1 X80.508 Y95.299 E22.00038
G1 X92.849 Y82.958 E22.15467
G1 X92.029 Y82.958 E22.16192
G1 X80.508 Y94.479 E22.30595
G1 X80.508 Y93.659 E22.31320
G1 X91.209 Y82.958 E22.44698
G1 X90.389 Y82.958 E22.45423
G1 X80.508 Y92.839 E22.57776
G1 X80.508 Y92.019 E22.58501
G1 X89.569 Y82.958 E22.69828
G1 X88.749 Y82.958 E22.70553
G1 X80.508 Y91.199 E22.80856
G1 X80.508 Y90.379 E22.81581
G1 X87.929 Y82.958 E22.90858
G1 X87.109 Y82.958 E22.91583
G1 X80.508 Y89.559 E22.99834
G1 X80.508 Y88.739 E23.00559
G1 X86.289 Y82.958 E23.07786
G1 X85.469 Y82.958 E23.08511
G1 X80.508 Y87.919 E23.14712
G1 X80.508 Y87.099 E23.15437
G1 X84.649 Y82.958 E23.20613
G1 X83.828 Y82.958 E23.21338
G1 X80.508 Y86.278 E23.25489
G1 X80.508 Y85.458 E23.26214
G1 X83.008 Y82.958 E23.29340
G1 X82.188 Y82.958 E23.30065
G1 X80.508 Y84.638 E23.32165
G1 X80.508 Y83.818 E23.32890
G1 X81.368 Y82.958 E23.33965
G1 X80.548 Y82.958 E23.34690
G1 X80.508 Y82.998 E23.34740
G1 E21.64740 F1800.00000
G92 E0
G1 Z0.550 F7200.000
G1 X80.025 Y82.475 F7200.000
G1 E1.70000 F1800.00000
G1 X119.975 Y82.475 E1.90009 F3360.000
G1 X119.975 Y117.525 E2.07563
G1 X80.025 Y117.525 E2.27572
G1 X80.025 Y82.527 E2.45100
G1 X80.548 Y117.042 F7200.000
G1 X80.508 Y117.002 E2.45150 F3600.000
G1 X80.508 Y116.182 E2.45875
G1 X81.368 Y117.042 E2.46950
G1 X82.188 Y117.042 E2.47675
G1 X80.508 Y115.362 E2.49776
G1 X80.508 Y114.542 E2.50501
G1 X83.008 Y117.042 E2.53626
G1 X83.828 Y117.042 E2.54351
G1 X80.508 Y113.722 E2.58502
G1 X80.508 Y112.901 E2.59227
G1 X84.649 Y117.042 E2.64403
G1 X85.469 Y117.042 E2.65128
G1 X80.508 Y112.081 E2.71329
G1 X80.508 Y111.261 E2.72054
G1 X86.289 Y117.042 E2.79281
G1 X87.109 Y117.042 E2.80006
G1 X80.508 Y110.441 E2.88258
G1 X80.508 Y109.621 E2.88983
G1 X87.929 Y117.042 E2.98260
G1 X88.749 Y117.042 E2.98985
G1 X80.508 Y108.801 E3.09287
G1 X80.508 Y107.981 E3.10012
G1 X89.569 Y117.042 E3.21340
G1 X90.389 Y117.042 E3.22065
G1 X80.508 Y107.161 E3.34417
G1 X80.508 Y106.341 E3.35142
G1 X91.209 Y117.042 E3.48520
G1 X92.029 Y117.042 E3.49245
G1 X80.508 Y105.521 E3.63649
G1 X80.508 Y104.701 E3.64374
G1 X92.849 Y117.042 E3.79802
G1 X93.669 Y117.042 E3.80527
G1 X80.508 Y103.881 E3.96981
G1 X80.508 Y103.060 E3.97706
G1 X94.489 Y117.042 E4.15185
G1 X95.310 Y117.042 E4.15910
G1 X80.508 Y102.240 E4.34414
G1 X80.508 Y101.420 E4.35139
G1 X96.130 Y117.042 E4.54669
G1 X96.950 Y117.042 E4.55394
G1 X80.508 Y100.600 E4.75949
G1 X80.508 Y99.780 E4.76673
G1 X97.770 Y117.042 E4.98254
G1 X98.590 Y117.042 E4.98978
G1 X80.508 Y98.960 E5.21584
G1 X80.508 Y98.140 E5.22309
G1 X99.410 Y117.042 E5.45939
G1 X100.230 Y117.042 E5.46664
G1 X80.508 Y97.320 E5.71320
G1 X80.508 Y96.500 E5.72045
G1 X101.050 Y117.042 E5.97726
G1 X101.870 Y117.042 E5.98451
G1 X80.508 Y95.680 E6.25157
G1 X80.508 Y94.860 E6.25882
G1 X102.690 Y117.042 E6.53614
G1 X103.510 Y117.042 E6.54339
G1 X80.508 Y94.040 E6.83095
G1 X80.508 Y93.220 E6.83820
G1 X104.330 Y117.042 E7.13602
G1 X105.151 Y117.042 E7.14327
G1 X80.508 Y92.399 E7.45135
G1 X80.508 Y91.579 E7.45859
G1 X105.971 Y117.042 E7.77692
G1 X106.791 Y117.042 E7.78417
G1 X80.508 Y90.759 E8.11275
G1 X80.508 Y89.939 E8.12000
G1 X107.611 Y117.042 E8.45883
G1 X108.431 Y117.042 E8.46608
G1 X80.508 Y89.119 E8.81516
G1 X80.508 Y88.299 E8.82241
G1 X109.251 Y117.042 E9.18174
G1 X110.071 Y117.042 E9.18899
G1 X80.508 Y87.479 E9.55858
G1 X80.508 Y86.659 E9.56583
G1 X110.891 Y117.042 E9.94567
G1 X111.711 Y117.042 E9.95292
G1 X80.508 Y85.839 E10.34301
G1 X80.508 Y85.019 E10.35026
G1 X112.531 Y117.042 E10.75060
G1 X113.351 Y117.042 E10.75785
G1 X80.508 Y84.199 E11.16845
G1 X80.508 Y83.379 E11.17570
G1 X114.171 Y117.042 E11.59655
G1 X114.992 Y117.042 E11.60380
G1 X80.908 Y82.958 E12.02990
G1 X81.728 Y82.958 E12.03715
G1 X115.812 Y117.042 E12.46326
G1 X116.632 Y117.042 E12.47051
G1 X82.548 Y82.958 E12.89661
G1 X83.368 Y82.958 E12.90386
G1 X117.452 Y117.042 E13.32997
G1 X118.272 Y117.042 E13.33721
G1 X84.188 Y82.958 E13.76332
G1 X85.008 Y82.958 E13.77057
G1 X119.092 Y117.042 E14.19667
G1 X119.492 Y116.622 E14.20180
G1 X85.828 Y82.958 E14.62265
G1 X86.649 Y82.958 E14.62990
G1 X119.492 Y115.801 E15.04050
G1 X119.492 Y114.981 E15.04775
G1 X87.469 Y82.958 E15.44810
G1 X88.289 Y82.958 E15.45534
G1 X119.492 Y114.161 E15.84544
G1 X119.492 Y113.341 E15.85269
G1 X89.109 Y82.958 E16.23253
G1 X89.929 Y82.958 E16.23978
G1 X119.492 Y112.521 E16.60937
G1 X119.492 Y111.701 E16.61662
G1 X90.749 Y82.958 E16.97595
G1 X91.569 Y82.958 E16.98320
G1 X119.492 Y110.881 E17.33229
G1 X119.492 Y110.061 E17.33953
G1 X92.389 Y82.958 E17.67837
G1 X93.209 Y82.958 E17.68562
G1 X119.492 Y109.241 E18.01419
G1 X119.492 Y108.421 E18.02144
G1 X94.029 Y82.958 E18.33977
G1 X94.849 Y82.958 E18.34702
