; generated by Slic3r 1.2.4 on 2015-01-13 at 19:20:59

; external perimeters extrusion width = 0.35mm
; perimeters extrusion width = 0.44mm
; infill extrusion width = 0.44mm
; solid infill extrusion width = 0.44mm
; top infill extrusion width = 0.44mm

M107
M190 S85 ; set bed temperature
M104 S230 ; set temperature
G28 ; home all axes
M203 X192 Y208 Z3M203 X192 Y208 Z3 ; Speed limits to minimize skipped steps when moving really fast courtesy of forum.lulzbot.com user 1013
M109 S230 ; wait for temperature to be reached
G21 ; set units to millimeters
G90 ; use absolute coordinates
M82 ; use absolute distances for extrusion
G92 E0
G1 E-1.70000 F1800.00000
G92 E0
G1 Z0.350 F8400.000
G1 X74.765 Y78.053 F8400.000
G1 E1.70000 F1800.00000
G1 X76.518 Y76.574 E1.77647 F1080.000
G1 X78.670 Y75.781 E1.85293
G1 X79.850 Y75.675 E1.89243
G1 X120.150 Y75.675 E3.23609
G1 X122.409 Y76.072 E3.31256
G1 X124.397 Y77.215 E3.38903 F1080.000
G1 X125.876 Y78.968 E3.46549
G1 X126.669 Y81.120 E3.54196
G1 X126.775 Y82.300 E3.58145
G1 X126.775 Y117.700 E4.76175
G1 X126.378 Y119.959 E4.83821
G1 X125.235 Y121.947 E4.91468
G1 X123.482 Y123.426 E4.99115
G1 X121.330 Y124.219 E5.06761
G1 X120.150 Y124.325 E5.10711
G1 X79.850 Y124.325 E6.45077
G1 X77.591 Y123.928 E6.52724
G1 X75.603 Y122.785 E6.60371
G1 X74.124 Y121.032 E6.68017
G1 X73.331 Y118.880 E6.75664
G1 X73.225 Y117.700 E6.79613
G1 X73.225 Y82.300 E7.97642
G1 X73.622 Y80.041 E8.05289
G1 X74.739 Y78.099 E8.12761
G1 E6.42761 F1800.00000
G92 E0
G1 X80.200 Y82.650 F8400.000
G1 E1.70000 F1800.00000
G1 X119.800 Y82.650 E3.02032 F1764.000
G1 X119.800 Y117.350 E4.17728
G1 X80.200 Y117.350 E5.49760
G1 X80.200 Y82.702 E6.65280
G1 E4.95280 F1800.00000
G92 E0
G1 X80.633 Y116.877 F8400.000
G1 E1.70000 F1800.00000
G1 X80.673 Y116.917 E1.70188 F1080.000
G1 X81.557 Y116.917 E1.73137
G1 X80.633 Y115.993 E1.77495
G1 X80.633 Y115.109 E1.80443
G1 X82.441 Y116.917 E1.88971
G1 X83.325 Y116.917 E1.91919
G1 X80.633 Y114.225 E2.04616
G1 X80.633 Y113.341 E2.07564
G1 X84.209 Y116.917 E2.24431
G1 X85.093 Y116.917 E2.27379
G1 X80.633 Y112.457 E2.48415
G1 X80.633 Y111.573 E2.51363
G1 X85.977 Y116.917 E2.76569
G1 X86.861 Y116.917 E2.79517
G1 X80.633 Y110.689 E3.08892
G1 X80.633 Y109.805 E3.11841
G1 X87.745 Y116.917 E3.45385
G1 X88.629 Y116.917 E3.48334
G1 X80.633 Y108.921 E3.86048
G1 X80.633 Y108.037 E3.88996
G1 X89.513 Y116.917 E4.30880
G1 X90.397 Y116.917 E4.33828
G1 X80.633 Y107.153 E4.79881
G1 X80.633 Y106.269 E4.82830
G1 X91.281 Y116.917 E5.33052
G1 X92.165 Y116.917 E5.36001
G1 X80.633 Y105.385 E5.90393
G1 X80.633 Y104.501 E5.93341
G1 X93.049 Y116.917 E6.51903
G1 X93.933 Y116.917 E6.54851
G1 X80.633 Y103.617 E7.17582
G1 X80.633 Y102.733 E7.20531
G1 X94.817 Y116.917 E7.87432
G1 X95.701 Y116.917 E7.90380
G1 X80.633 Y101.849 E8.61450
G1 X80.633 Y100.965 E8.64399
G1 X96.585 Y116.917 E9.39638
G1 X97.469 Y116.917 E9.42587
G1 X80.633 Y100.081 E10.21996
G1 X80.633 Y99.197 E10.24944
G1 X98.353 Y116.917 E11.08523
G1 X99.237 Y116.917 E11.11472
G1 X80.633 Y98.313 E11.99220
G1 X80.633 Y97.429 E12.02168
G1 X100.121 Y116.917 E12.94086
G1 X101.005 Y116.917 E12.97035
G1 X80.633 Y96.545 E13.93122
G1 X80.633 Y95.661 E13.96070
G1 X101.889 Y116.917 E14.96327
G1 X102.773 Y116.917 E14.99276
G1 X80.633 Y94.777 E16.03702
G1 X80.633 Y93.893 E16.06650
G1 X103.657 Y116.917 E17.15247
G1 X104.541 Y116.917 E17.18195
G1 X80.633 Y93.009 E18.30960
G1 X80.633 Y92.125 E18.33909
G1 X105.425 Y116.917 E19.50844
G1 X106.309 Y116.917 E19.53792
G1 X80.633 Y91.241 E20.74897
G1 X80.633 Y90.357 E20.77845
G1 X107.193 Y116.917 E22.03119
G1 X108.077 Y116.917 E22.06067
G1 X80.633 Y89.473 E23.35511
G1 X80.633 Y88.589 E23.38459
G1 X108.961 Y116.917 E24.72073
G1 X109.845 Y116.917 E24.75021
G1 X80.633 Y87.705 E26.12804
G1 X80.633 Y86.821 E26.15752
G1 X110.729 Y116.917 E27.57704
G1 X111.613 Y116.917 E27.60652
G1 X80.633 Y85.937 E29.06774
G1 X80.633 Y85.053 E29.09722
G1 X112.497 Y116.917 E30.60014
G1 X113.381 Y116.917 E30.62962
G1 X80.633 Y84.169 E32.17423
G1 X80.633 Y83.285 E32.20371
G1 X114.265 Y116.917 E33.79001
G1 X115.149 Y116.917 E33.81950
G1 X81.315 Y83.083 E35.41533
G1 X82.199 Y83.083 E35.44481
G1 X116.033 Y116.917 E37.04064
G1 X116.917 Y116.917 E37.07013
G1 X83.083 Y83.083 E38.66596
G1 X83.967 Y83.083 E38.69544
G1 X117.801 Y116.917 E40.29127
G1 X118.685 Y116.917 E40.32076
G1 X84.851 Y83.083 E41.91659
G1 X85.735 Y83.083 E41.94607
G1 X119.367 Y116.715 E43.53238
G1 X119.367 Y115.831 E43.56186
G1 X86.619 Y83.083 E45.10647
G1 X87.503 Y83.083 E45.13595
G1 X119.367 Y114.947 E46.63887
G1 X119.367 Y114.063 E46.66835
G1 X88.387 Y83.083 E48.12957
G1 X89.271 Y83.083 E48.15905
G1 X119.367 Y113.179 E49.57858
G1 X119.367 Y112.295 E49.60806
G1 X90.155 Y83.083 E50.98589
G1 X91.039 Y83.083 E51.01537
G1 X119.367 Y111.411 E52.35150
G1 X119.367 Y110.527 E52.38099
G1 X91.923 Y83.083 E53.67543
G1 X92.807 Y83.083 E53.70491
G1 X119.367 Y109.643 E54.95765
G1 X119.367 Y108.759 E54.98714
G1 X93.691 Y83.083 E56.19818
G1 X94.575 Y83.083 E56.22767
G1 X119.367 Y107.875 E57.39702
G1 X119.367 Y106.991 E57.42650
G1 X95.459 Y83.083 E58.55416
G1 X96.343 Y83.083 E58.58364
G1 X119.367 Y106.107 E59.66961
G1 X119.367 Y105.223 E59.69909
G1 X97.227 Y83.083 E60.74336
G1 X98.111 Y83.083 E60.77284
G1 X119.367 Y104.339 E61.77541
G1 X119.367 Y103.455 E61.80489
G1 X98.995 Y83.083 E62.76577
G1 X99.879 Y83.083 E62.79525
G1 X119.367 Y102.571 E63.71443
G1 X119.367 Y101.687 E63.74392
G1 X100.763 Y83.083 E64.62140
G1 X101.647 Y83.083 E64.65089
G1 X119.367 Y100.803 E65.48668
G1 X119.367 Y99.919 E65.51616
G1 X102.531 Y83.083 E66.31026
G1 X103.415 Y83.083 E66.33974
G1 X119.367 Y99.035 E67.09214
G1 X119.367 Y98.151 E67.12162
G1 X104.299 Y83.083 E67.83233
G1 X105.183 Y83.083 E67.86181
G1 X119.367 Y97.267 E68.53082
G1 X119.367 Y96.383 E68.56031
G1 X106.067 Y83.083 E69.18762
G1 X106.951 Y83.083 E69.21710
G1 X119.367 Y95.499 E69.80272
G1 X119.367 Y94.615 E69.83221
G1 X107.835 Y83.083 E70.37613
G1 X108.719 Y83.083 E70.40561
G1 X119.367 Y93.731 E70.90784
G1 X119.367 Y92.847 E70.93733
G1 X109.603 Y83.083 E71.39786
G1 X110.487 Y83.083 E71.42734
G1 X119.367 Y91.963 E71.84618
G1 X119.367 Y91.079 E71.87567
G1 X111.371 Y83.083 E72.25281
G1 X112.255 Y83.083 E72.28229
G1 X119.367 Y90.195 E72.61774
G1 X119.367 Y89.311 E72.64722
G1 X113.139 Y83.083 E72.94098
G1 X114.023 Y83.083 E72.97046
G1 X119.367 Y88.427 E73.22252
G1 X119.367 Y87.543 E73.25200
G1 X114.907 Y83.083 E73.46236
G1 X115.791 Y83.083 E73.49185
G1 X119.367 Y86.659 E73.66051
G1 X119.367 Y85.775 E73.69000
G1 X116.675 Y83.083 E73.81697
G1 X117.559 Y83.083 E73.84645
G1 X119.367 Y84.891 E73.93173
G1 X119.367 Y84.007 E73.96121
G1 X118.443 Y83.083 E74.00479
G1 X119.327 Y83.083 E74.03428
G1 X119.367 Y83.123 E74.03616
G1 E72.33616 F1800.00000
G92 E0
G1 Z0.600 F8400.000
G1 X119.975 Y82.475 F8400.000
G1 E1.70000 F1800.00000
G1 X119.975 Y117.525 E2.09586 F5880.000
G1 X80.025 Y117.525 E2.54707
G1 X80.025 Y82.475 E2.94294
G1 X119.922 Y82.475 E3.39355
G1 X119.676 Y117.266 F8400.000
G1 X119.716 Y117.226 E3.39438 F3600.000
G1 X119.716 Y116.679 E3.40246
G1 X119.129 Y117.266 E3.41471
G1 X118.581 Y117.266 E3.42278
G1 X119.716 Y116.131 E3.44644
G1 X119.716 Y115.584 E3.45451
G1 X118.034 Y117.266 E3.48959
G1 X117.487 Y117.266 E3.49767
G1 X119.716 Y115.037 E3.54416
G1 X119.716 Y114.490 E3.55223
G1 X116.940 Y117.266 E3.61014
G1 X116.392 Y117.266 E3.61822
G1 X119.716 Y113.942 E3.68754
G1 X119.716 Y113.395 E3.69561
G1 X115.845 Y117.266 E3.77636
G1 X115.298 Y117.266 E3.78443
G1 X119.716 Y112.848 E3.87659
G1 X119.716 Y112.300 E3.88466
G1 X114.750 Y117.266 E3.98823
G1 X114.203 Y117.266 E3.99630
G1 X119.716 Y111.753 E4.11129
G1 X119.716 Y111.206 E4.11936
G1 X113.656 Y117.266 E4.24576
G1 X113.109 Y117.266 E4.25384
G1 X119.716 Y110.659 E4.39165
G1 X119.716 Y110.111 E4.39973
G1 X112.561 Y117.266 E4.54896
G1 X112.014 Y117.266 E4.55703
G1 X119.716 Y109.564 E4.71768
G1 X119.716 Y109.017 E4.72575
G1 X111.467 Y117.266 E4.89782
G1 X110.919 Y117.266 E4.90589
G1 X119.716 Y108.469 E5.08937
G1 X119.716 Y107.922 E5.09744
G1 X110.372 Y117.266 E5.29233
G1 X109.825 Y117.266 E5.30041
G1 X119.716 Y107.375 E5.50672
G1 X119.716 Y106.828 E5.51479
G1 X109.278 Y117.266 E5.73251
G1 X108.730 Y117.266 E5.74059
G1 X119.716 Y106.280 E5.96973
G1 X119.716 Y105.733 E5.97780
G1 X108.183 Y117.266 E6.21835
G1 X107.636 Y117.266 E6.22643
G1 X119.716 Y105.186 E6.47840
G1 X119.716 Y104.638 E6.48647
G1 X107.088 Y117.266 E6.74986
G1 X106.541 Y117.266 E6.75793
G1 X119.716 Y104.091 E7.03273
G1 X119.716 Y103.544 E7.04080
G1 X105.994 Y117.266 E7.32702
G1 X105.446 Y117.266 E7.33509
G1 X119.716 Y102.996 E7.63272
G1 X119.716 Y102.449 E7.64080
G1 X104.899 Y117.266 E7.94984
G1 X104.352 Y117.266 E7.95792
G1 X119.716 Y101.902 E8.27838
G1 X119.716 Y101.355 E8.28645
G1 X103.805 Y117.266 E8.61833
G1 X103.257 Y117.266 E8.62640
G1 X119.716 Y100.807 E8.96970
G1 X119.716 Y100.260 E8.97777
G1 X102.710 Y117.266 E9.33248
G1 X102.163 Y117.266 E9.34055
G1 X119.716 Y99.713 E9.70667
G1 X119.716 Y99.165 E9.71475
G1 X101.615 Y117.266 E10.09229
G1 X101.068 Y117.266 E10.10036
G1 X119.716 Y98.618 E10.48931
G1 X119.716 Y98.071 E10.49738
G1 X100.521 Y117.266 E10.89775
G1 X99.974 Y117.266 E10.90583
G1 X119.716 Y97.524 E11.31761
G1 X119.716 Y96.976 E11.32568
G1 X99.426 Y117.266 E11.74889
G1 X98.879 Y117.266 E11.75696
G1 X119.716 Y96.429 E12.19157
G1 X119.716 Y95.882 E12.19965
G1 X98.332 Y117.266 E12.64568
G1 X97.784 Y117.266 E12.65375
G1 X119.716 Y95.334 E13.11120
G1 X119.716 Y94.787 E13.11927
G1 X97.237 Y117.266 E13.58813
G1 X96.690 Y117.266 E13.59620
G1 X119.716 Y94.240 E14.07648
G1 X119.716 Y93.693 E14.08455
G1 X96.143 Y117.266 E14.57625
G1 X95.595 Y117.266 E14.58432
G1 X119.716 Y93.145 E15.08743
G1 X119.716 Y92.598 E15.09550
G1 X95.048 Y117.266 E15.61002
G1 X94.501 Y117.266 E15.61809
G1 X119.716 Y92.051 E16.14403
G1 X119.716 Y91.503 E16.15211
G1 X93.953 Y117.266 E16.68946
G1 X93.406 Y117.266 E16.69753
G1 X119.716 Y90.956 E17.24630
G1 X119.716 Y90.409 E17.25437
G1 X92.859 Y117.266 E17.81456
G1 X92.312 Y117.266 E17.82263
G1 X119.716 Y89.862 E18.39423
G1 X119.716 Y89.314 E18.40230
G1 X91.764 Y117.266 E18.98532
G1 X91.217 Y117.266 E18.99339
G1 X119.716 Y88.767 E19.58782
G1 X119.716 Y88.220 E19.59589
G1 X90.670 Y117.266 E20.20174
G1 X90.122 Y117.266 E20.20981
G1 X119.716 Y87.672 E20.82707
G1 X119.716 Y87.125 E20.83515
G1 X89.575 Y117.266 E21.46382
G1 X89.028 Y117.266 E21.47190
G1 X119.716 Y86.578 E22.11199
G1 X119.716 Y86.031 E22.12006
G1 X88.481 Y117.266 E22.77157
G1 X87.933 Y117.266 E22.77964
G1 X119.716 Y85.483 E23.44256
G1 X119.716 Y84.936 E23.45063
G1 X87.386 Y117.266 E24.12497
G1 X86.839 Y117.266 E24.13304
G1 X119.716 Y84.389 E24.81880
G1 X119.716 Y83.841 E24.82687
G1 X86.291 Y117.266 E25.52404
G1 X85.744 Y117.266 E25.53211
G1 X119.716 Y83.294 E26.24070
G1 X119.702 Y82.760 E26.24857
G1 X85.197 Y117.266 E26.96829
G1 X84.649 Y117.266 E26.97636
G1 X119.182 Y82.734 E27.69662
G1 X118.634 Y82.734 E27.70470
G1 X84.102 Y117.266 E28.42496
G1 X83.555 Y117.266 E28.43303
G1 X118.087 Y82.734 E29.15330
G1 X117.540 Y82.734 E29.16137
G1 X83.008 Y117.266 E29.88164
G1 X82.460 Y117.266 E29.88971
G1 X116.992 Y82.734 E30.60998
G1 X116.445 Y82.734 E30.61805
G1 X81.913 Y117.266 E31.33832
G1 X81.366 Y117.266 E31.34639
G1 X115.898 Y82.734 E32.06665
G1 X115.350 Y82.734 E32.07473
G1 X80.818 Y117.266 E32.79499
G1 X80.298 Y117.240 E32.80269
G1 X114.803 Y82.734 E33.52240
G1 X114.256 Y82.734 E33.53047
G1 X80.284 Y116.706 E34.23906
G1 X80.284 Y116.159 E34.24713
G1 X113.709 Y82.734 E34.94430
G1 X113.161 Y82.734 E34.95237
G1 X80.284 Y115.611 E35.63812
G1 X80.284 Y115.064 E35.64619
G1 X112.614 Y82.734 E36.32053
G1 X112.067 Y82.734 E36.32860
G1 X80.284 Y114.517 E36.99153
G1 X80.284 Y113.969 E36.99960
G1 X111.519 Y82.734 E37.65111
G1 X110.972 Y82.734 E37.65918
G1 X80.284 Y113.422 E38.29927
G1 X80.284 Y112.875 E38.30734
G1 X110.425 Y82.734 E38.93602
G1 X109.878 Y82.734 E38.94409
G1 X80.284 Y112.328 E39.56135
G1 X80.284 Y111.780 E39.56943
G1 X109.330 Y82.734 E40.17527
G1 X108.783 Y82.734 E40.18334
G1 X80.284 Y111.233 E40.77777
G1 X80.284 Y110.686 E40.78585
G1 X108.236 Y82.734 E41.36886
G1 X107.688 Y82.734 E41.37693
G1 X80.284 Y110.138 E41.94853
G1 X80.284 Y109.591 E41.95661
G1 X107.141 Y82.734 E42.51679
G1 X106.594 Y82.734 E42.52486
G1 X80.284 Y109.044 E43.07363
G1 X80.284 Y108.497 E43.08170
G1 X106.047 Y82.734 E43.61906
G1 X105.499 Y82.734 E43.62713
G1 X80.284 Y107.949 E44.15307
G1 X80.284 Y107.402 E44.16114
G1 X104.952 Y82.734 E44.67566
G1 X104.405 Y82.734 E44.68374
G1 X80.284 Y106.855 E45.18685
G1 X80.284 Y106.307 E45.19492
G1 X103.857 Y82.734 E45.68661
G1 X103.310 Y82.734 E45.69468
G1 X80.284 Y105.760 E46.17496
G1 X80.284 Y105.213 E46.18303
G1 X102.763 Y82.734 E46.65189
G1 X102.216 Y82.734 E46.65997
G1 X80.284 Y104.666 E47.11741
G1 X80.284 Y104.118 E47.12548
G1 X101.668 Y82.734 E47.57152
G1 X101.121 Y82.734 E47.57959
G1 X80.284 Y103.571 E48.01420
G1 X80.284 Y103.024 E48.02228
G1 X100.574 Y82.734 E48.44548
G1 X100.026 Y82.734 E48.45355
G1 X80.284 Y102.476 E48.86533
G1 X80.284 Y101.929 E48.87341
G1 X99.479 Y82.734 E49.27378
G1 X98.932 Y82.734 E49.28185
G1 X80.284 Y101.382 E49.67080
G1 X80.284 Y100.835 E49.67888
G1 X98.385 Y82.734 E50.05642
G1 X97.837 Y82.734 E50.06449
G1 X80.284 Y100.287 E50.43061
G1 X80.284 Y99.740 E50.43868
G1 X97.290 Y82.734 E50.79339
G1 X96.743 Y82.734 E50.80146
G1 X80.284 Y99.193 E51.14476
G1 X80.284 Y98.645 E51.15283
G1 X96.195 Y82.734 E51.48471
G1 X95.648 Y82.734 E51.49278
G1 X80.284 Y98.098 E51.81324
G1 X80.284 Y97.551 E51.82132
G1 X95.101 Y82.734 E52.13036
G1 X94.553 Y82.734 E52.13843
G1 X80.284 Y97.003 E52.43607
G1 X80.284 Y96.456 E52.44414
G1 X94.006 Y82.734 E52.73036
G1 X93.459 Y82.734 E52.73843
G1 X80.284 Y95.909 E53.01323
G1 X80.284 Y95.362 E53.02130
G1 X92.912 Y82.734 E53.28469
G1 X92.364 Y82.734 E53.29276
G1 X80.284 Y94.814 E53.54473
G1 X80.284 Y94.267 E53.55280
G1 X91.817 Y82.734 E53.79336
G1 X91.270 Y82.734 E53.80143
G1 X80.284 Y93.720 E54.03057
G1 X80.284 Y93.172 E54.03864
G1 X90.722 Y82.734 E54.25637
G1 X90.175 Y82.734 E54.26444
G1 X80.284 Y92.625 E54.47075
G1 X80.284 Y92.078 E54.47882
G1 X89.628 Y82.734 E54.67372
G1 X89.081 Y82.734 E54.68179
G1 X80.284 Y91.531 E54.86527
G1 X80.284 Y90.983 E54.87334
G1 X88.533 Y82.734 E55.04540
G1 X87.986 Y82.734 E55.05347
G1 X80.284 Y90.436 E55.21412
G1 X80.284 Y89.889 E55.22220
G1 X87.439 Y82.734 E55.37143
G1 X86.891 Y82.734 E55.37950
G1 X80.284 Y89.341 E55.51732
G1 X80.284 Y88.794 E55.52539
G1 X86.344 Y82.734 E55.65179
G1 X85.797 Y82.734 E55.65986
G1 X80.284 Y88.247 E55.77485
G1 X80.284 Y87.700 E55.78292
G1 X85.250 Y82.734 E55.88650
G1 X84.702 Y82.734 E55.89457
G1 X80.284 Y87.152 E55.98672
G1 X80.284 Y86.605 E55.99480
G1 X84.155 Y82.734 E56.07554
G1 X83.608 Y82.734 E56.08361
G1 X80.284 Y86.058 E56.15293
G1 X80.284 Y85.510 E56.16101
G1 X83.060 Y82.734 E56.21892
G1 X82.513 Y82.734 E56.22699
G1 X80.284 Y84.963 E56.27348
G1 X80.284 Y84.416 E56.28156
G1 X81.966 Y82.734 E56.31664
G1 X81.419 Y82.734 E56.32471
G1 X80.284 Y83.869 E56.34837
G1 X80.284 Y83.321 E56.35644
G1 X80.871 Y82.734 E56.36869
G1 X80.324 Y82.734 E56.37677
G1 X80.284 Y82.774 E56.37760
G1 E54.67760 F1800.00000
G92 E0
G1 Z0.850 F8400.000
G1 X80.025 Y82.475 F8400.000
G1 E1.70000 F1800.00000
G1 X119.975 Y82.475 E2.15121 F5880.000
G1 X119.975 Y117.525 E2.54707
G1 X80.025 Y117.525 E2.99828
G1 X80.025 Y82.527 E3.39355
G1 E1.69355 F1800.00000
G92 E0
G1 X80.324 Y117.266 F8400.000
G1 E1.70000 F1800.00000
G1 X80.284 Y117.226 E1.70083 F3600.000
G1 X80.284 Y116.679 E1.70891
G1 X80.871 Y117.266 E1.72116
G1 X81.419 Y117.266 E1.72923
G1 X80.284 Y116.131 E1.75289
G1 X80.284 Y115.584 E1.76096
G1 X81.966 Y117.266 E1.79604
G1 X82.513 Y117.266 E1.80412
G1 X80.284 Y115.037 E1.85061
G1 X80.284 Y114.490 E1.85868
G1 X83.060 Y117.266 E1.91659
G1 X83.608 Y117.266 E1.92466
G1 X80.284 Y113.942 E1.99399
G1 X80.284 Y113.395 E2.00206
G1 X84.155 Y117.266 E2.08280
G1 X84.702 Y117.266 E2.09088
G1 X80.284 Y112.848 E2.18303
G1 X80.284 Y112.300 E2.19110
G1 X85.250 Y117.266 E2.29468
G1 X85.797 Y117.266 E2.30275
G1 X80.284 Y111.753 E2.41774
G1 X80.284 Y111.206 E2.42581
