; generated by Slic3r 1.2.4 on 2015-01-13 at 19:24:38

; external perimeters extrusion width = 0.40mm
; perimeters extrusion width = 0.48mm
; infill extrusion width = 0.48mm
; solid infill extrusion width = 0.48mm
; top infill extrusion width = 0.48mm

M107
M104 S200 ; set temperature
G28 ; home all pillars
G29 ; z probe
G1 X0 Y0 Z0 ; plug nozzle to stop ooze
M109 S200 ; wait for temperature to be reached
G21 ; set units to millimeters
G90 ; use absolute coordinates
M82 ; use absolute distances for extrusion
G92 E0
G1 E-3.00000 F1800.00000
G92 E0
G1 Z0.400 F7800.000
G1 X74.677 Y78.020 F7800.000
G1 E3.00000 F1800.00000
G1 X76.433 Y76.520 E3.27422 F1080.000
G1 X78.593 Y75.705 E3.54845
G1 X79.850 Y75.586 E3.69842
G1 X120.150 Y75.586 E8.48465
G1 X122.425 Y75.983 E8.75888
G1 X124.430 Y77.127 E9.03310 F1080.000
G1 X125.930 Y78.883 E9.30733
G1 X126.745 Y81.043 E9.58155
G1 X126.864 Y82.300 E9.73152
G1 X126.864 Y117.700 E13.93581
G1 X126.467 Y119.975 E14.21003
G1 X125.323 Y121.980 E14.48426
G1 X123.567 Y123.480 E14.75848
G1 X121.407 Y124.295 E15.03271
G1 X120.150 Y124.414 E15.18267
G1 X79.850 Y124.414 E19.96891
G1 X77.575 Y124.017 E20.24313
G1 X75.570 Y122.873 E20.51736
G1 X74.070 Y121.117 E20.79158
G1 X73.255 Y118.957 E21.06581
G1 X73.136 Y117.700 E21.21577
G1 X73.136 Y82.300 E25.42006
G1 X73.533 Y80.025 E25.69429
G1 X74.647 Y78.072 E25.96139
G1 E22.96139 F1800.00000
G92 E0
G1 X81.678 Y84.128 F7800.000
G1 E3.00000 F1800.00000
G1 X118.322 Y84.128 E7.35196 F1080.000
G1 X118.322 Y115.872 E11.12196
G1 X81.678 Y115.872 E15.47392
G1 X81.678 Y84.188 E19.23680
G1 X80.964 Y83.414 F7800.000
G1 X119.036 Y83.414 E23.75839 F1080.000
G1 X119.036 Y116.586 E27.69803
G1 X80.964 Y116.586 E32.21962
G1 X80.964 Y83.474 E36.15213
G1 X80.250 Y82.700 F7800.000
G1 X119.750 Y82.700 E40.84336 F756.000
G1 X119.750 Y117.300 E44.95263
G1 X80.250 Y117.300 E49.64386
G1 X80.250 Y82.760 E53.74601
G1 X80.596 Y82.900 F7800.000
G1 E50.74601 F1800.00000
G92 E0
G1 X82.216 Y115.374 F7800.000
G1 E3.00000 F1800.00000
G1 X82.176 Y115.334 E3.00678 F1080.000
G1 X82.176 Y114.314 E3.12918
G1 X83.236 Y115.374 E3.30907
G1 X84.257 Y115.374 E3.43147
G1 X82.176 Y113.293 E3.78446
G1 X82.176 Y112.273 E3.90686
G1 X85.277 Y115.374 E4.43294
G1 X86.297 Y115.374 E4.55535
G1 X82.176 Y111.253 E5.25453
G1 X82.176 Y110.233 E5.37694
G1 X87.317 Y115.374 E6.24923
G1 X88.337 Y115.374 E6.37163
G1 X82.176 Y109.213 E7.41702
G1 X82.176 Y108.192 E7.53942
G1 X89.358 Y115.374 E8.75791
G1 X90.378 Y115.374 E8.88032
G1 X82.176 Y107.172 E10.27191
G1 X82.176 Y106.152 E10.39431
G1 X91.398 Y115.374 E11.95901
G1 X92.418 Y115.374 E12.08141
G1 X82.176 Y105.132 E13.81921
G1 X82.176 Y104.111 E13.94161
G1 X93.439 Y115.374 E15.85251
G1 X94.459 Y115.374 E15.97491
G1 X82.176 Y103.091 E18.05891
G1 X82.176 Y102.071 E18.18131
G1 X95.479 Y115.374 E20.43842
G1 X96.499 Y115.374 E20.56082
G1 X82.176 Y101.051 E22.99102
G1 X82.176 Y100.030 E23.11343
G1 X97.520 Y115.374 E25.71673
G1 X98.540 Y115.374 E25.83913
G1 X82.176 Y99.010 E28.61554
G1 X82.176 Y97.990 E28.73794
G1 X99.560 Y115.374 E31.68745
G1 X100.580 Y115.374 E31.80985
G1 X82.176 Y96.970 E34.93246
G1 X82.176 Y95.949 E35.05486
G1 X101.601 Y115.374 E38.35058
G1 X102.621 Y115.374 E38.47298
G1 X82.176 Y94.929 E41.94179
G1 X82.176 Y93.909 E42.06419
G1 X103.641 Y115.374 E45.70611
G1 X104.661 Y115.374 E45.82851
G1 X82.176 Y92.889 E49.64353
G1 X82.176 Y91.868 E49.76593
G1 X105.682 Y115.374 E53.75405
G1 X106.702 Y115.374 E53.87645
G1 X82.176 Y90.848 E58.03767
G1 X82.176 Y89.828 E58.16007
G1 X107.722 Y115.374 E62.49439
G1 X108.742 Y115.374 E62.61680
G1 X82.176 Y88.808 E67.12422
G1 X82.176 Y87.787 E67.24662
G1 X109.763 Y115.374 E71.92715
G1 X110.783 Y115.374 E72.04955
G1 X82.176 Y86.767 E76.90317
G1 X82.176 Y85.747 E77.02558
G1 X111.803 Y115.374 E82.05230
G1 X112.823 Y115.374 E82.17471
G1 X82.176 Y84.727 E87.37453
G1 X83.096 Y84.626 E87.48552
G1 X113.844 Y115.374 E92.70242
G1 X114.864 Y115.374 E92.82483
G1 X84.116 Y84.626 E98.04173
G1 X85.136 Y84.626 E98.16413
G1 X115.884 Y115.374 E103.38103
G1 X116.904 Y115.374 E103.50343
G1 X86.156 Y84.626 E108.72033
G1 X87.177 Y84.626 E108.84273
G1 X117.824 Y115.273 E114.04257
G1 X117.824 Y114.253 E114.16497
G1 X88.197 Y84.626 E119.19170
G1 X89.217 Y84.626 E119.31410
G1 X117.824 Y113.233 E124.16773
G1 X117.824 Y112.213 E124.29014
G1 X90.237 Y84.626 E128.97066
G1 X91.258 Y84.626 E129.09307
G1 X117.824 Y111.192 E133.60049
G1 X117.824 Y110.172 E133.72289
G1 X92.278 Y84.626 E138.05722
G1 X93.298 Y84.626 E138.17962
G1 X117.824 Y109.152 E142.34085
G1 X117.824 Y108.132 E142.46325
G1 X94.318 Y84.626 E146.45137
G1 X95.339 Y84.626 E146.57377
G1 X117.824 Y107.111 E150.38879
G1 X117.824 Y106.091 E150.51119
G1 X96.359 Y84.626 E154.15311
G1 X97.379 Y84.626 E154.27552
G1 X117.824 Y105.071 E157.74433
G1 X117.824 Y104.051 E157.86674
G1 X98.399 Y84.626 E161.16245
G1 X99.420 Y84.626 E161.28485
G1 X117.824 Y103.030 E164.40747
G1 X117.824 Y102.010 E164.52987
G1 X100.440 Y84.626 E167.47938
G1 X101.460 Y84.626 E167.60178
G1 X117.824 Y100.990 E170.37820
G1 X117.824 Y99.970 E170.50060
G1 X102.480 Y84.626 E173.10391
G1 X103.501 Y84.626 E173.22631
G1 X117.824 Y98.949 E175.65652
G1 X117.824 Y97.929 E175.77892
G1 X104.521 Y84.626 E178.03603
G1 X105.541 Y84.626 E178.15843
G1 X117.824 Y96.909 E180.24243
G1 X117.824 Y95.889 E180.36484
G1 X106.561 Y84.626 E182.27574
G1 X107.582 Y84.626 E182.39814
G1 X117.824 Y94.868 E184.13594
G1 X117.824 Y93.848 E184.25835
G1 X108.602 Y84.626 E185.82305
G1 X109.622 Y84.626 E185.94545
G1 X117.824 Y92.828 E187.33705
G1 X117.824 Y91.808 E187.45945
G1 X110.642 Y84.626 E188.67795
G1 X111.662 Y84.626 E188.80035
G1 X117.824 Y90.788 E189.84574
G1 X117.824 Y89.767 E189.96814
G1 X112.683 Y84.626 E190.84044
G1 X113.703 Y84.626 E190.96284
G1 X117.824 Y88.747 E191.66203
G1 X117.824 Y87.727 E191.78444
G1 X114.723 Y84.626 E192.31053
G1 X115.743 Y84.626 E192.43293
G1 X117.824 Y86.707 E192.78592
G1 X117.824 Y85.686 E192.90832
G1 X116.764 Y84.626 E193.08821
G1 X117.784 Y84.626 E193.21061
G1 X117.824 Y84.666 E193.21740
M106 S94.35
G1 E190.21740 F1800.00000
G92 E0
G1 Z0.700 F7800.000
G1 X119.154 Y83.296 F7800.000
G1 E3.00000 F1800.00000
G1 X119.154 Y116.704 E4.74538 F3600.000
G1 X80.846 Y116.704 E6.74677
G1 X80.846 Y83.296 E8.49215
G1 X119.094 Y83.296 E10.49040
G1 X119.573 Y82.877 F7800.000
G1 X119.573 Y117.123 E12.27956 F3600.000
G1 X80.427 Y117.123 E14.32471
G1 X80.427 Y82.877 E16.11386
G1 X119.513 Y82.877 E18.15588
G1 X119.950 Y82.500 F7800.000
G1 X119.950 Y117.500 E19.62099 F2520.000
G1 X80.050 Y117.500 E21.29122
G1 X80.050 Y82.500 E22.75633
G1 X119.890 Y82.500 E24.42404
G1 X119.750 Y82.846 F7800.000
G1 X118.830 Y116.420 F7800.000
G1 X118.870 Y116.380 E24.42700 F3600.000
G1 X118.870 Y115.788 E24.45795
G1 X118.238 Y116.420 E24.50469
G1 X117.645 Y116.420 E24.53564
G1 X118.870 Y115.195 E24.62615
G1 X118.870 Y114.603 E24.65711
G1 X117.053 Y116.420 E24.79139
G1 X116.460 Y116.420 E24.82235
G1 X118.870 Y114.010 E25.00041
G1 X118.870 Y113.418 E25.03137
G1 X115.868 Y116.420 E25.25321
G1 X115.276 Y116.420 E25.28417
G1 X118.870 Y112.826 E25.54979
G1 X118.870 Y112.233 E25.58074
G1 X114.683 Y116.420 E25.89014
G1 X114.091 Y116.420 E25.92110
G1 X118.870 Y111.641 E26.27427
G1 X118.870 Y111.048 E26.30523
G1 X113.498 Y116.420 E26.70218
G1 X112.906 Y116.420 E26.73313
G1 X118.870 Y110.456 E27.17386
G1 X118.870 Y109.863 E27.20482
G1 X112.313 Y116.420 E27.68933
G1 X111.721 Y116.420 E27.72028
G1 X118.870 Y109.271 E28.24857
G1 X118.870 Y108.678 E28.27952
G1 X111.128 Y116.420 E28.85158
G1 X110.536 Y116.420 E28.88254
G1 X118.870 Y108.086 E29.49838
G1 X118.870 Y107.494 E29.52933
G1 X109.944 Y116.420 E30.18895
G1 X109.351 Y116.420 E30.21990
G1 X118.870 Y106.901 E30.92330
G1 X118.870 Y106.309 E30.95425
G1 X108.759 Y116.420 E31.70142
G1 X108.166 Y116.420 E31.73238
G1 X118.870 Y105.716 E32.52333
G1 X118.870 Y105.124 E32.55428
G1 X107.574 Y116.420 E33.38901
G1 X106.981 Y116.420 E33.41996
G1 X118.870 Y104.531 E34.29847
G1 X118.870 Y103.939 E34.32942
G1 X106.389 Y116.420 E35.25170
G1 X105.796 Y116.420 E35.28266
G1 X118.870 Y103.346 E36.24872
G1 X118.870 Y102.754 E36.27967
G1 X105.204 Y116.420 E37.28951
G1 X104.612 Y116.420 E37.32046
G1 X118.870 Y102.162 E38.37408
G1 X118.870 Y101.569 E38.40503
G1 X104.019 Y116.420 E39.50242
G1 X103.427 Y116.420 E39.53338
G1 X118.870 Y100.977 E40.67455
G1 X118.870 Y100.384 E40.70550
G1 X102.834 Y116.420 E41.89045
G1 X102.242 Y116.420 E41.92140
G1 X118.870 Y99.792 E43.15012
G1 X118.870 Y99.199 E43.18108
G1 X101.649 Y116.420 E44.45358
G1 X101.057 Y116.420 E44.48453
G1 X118.870 Y98.607 E45.80081
G1 X118.870 Y98.014 E45.83177
G1 X100.464 Y116.420 E47.19182
G1 X99.872 Y116.420 E47.22278
G1 X118.870 Y97.422 E48.62661
G1 X118.870 Y96.830 E48.65756
G1 X99.280 Y116.420 E50.10517
G1 X98.687 Y116.420 E50.13613
G1 X118.870 Y96.237 E51.62752
G1 X118.870 Y95.645 E51.65847
G1 X98.095 Y116.420 E53.19363
G1 X97.502 Y116.420 E53.22459
G1 X118.870 Y95.052 E54.80353
G1 X118.870 Y94.460 E54.83449
G1 X96.910 Y116.420 E56.45721
G1 X96.317 Y116.420 E56.48816
G1 X118.870 Y93.867 E58.15466
G1 X118.870 Y93.275 E58.18561
G1 X95.725 Y116.420 E59.89589
G1 X95.132 Y116.420 E59.92684
G1 X118.870 Y92.682 E61.68089
G1 X118.870 Y92.090 E61.71185
G1 X94.540 Y116.420 E63.50968
G1 X93.948 Y116.420 E63.54063
G1 X118.870 Y91.498 E65.38224
G1 X118.870 Y90.905 E65.41319
G1 X93.355 Y116.420 E67.29858
G1 X92.763 Y116.420 E67.32953
G1 X118.870 Y90.313 E69.25869
G1 X118.870 Y89.720 E69.28965
G1 X92.170 Y116.420 E71.26259
G1 X91.578 Y116.420 E71.29354
G1 X118.870 Y89.128 E73.31026
G1 X118.870 Y88.535 E73.34121
G1 X90.985 Y116.420 E75.40170
G1 X90.393 Y116.420 E75.43266
G1 X118.870 Y87.943 E77.53693
G1 X118.870 Y87.350 E77.56788
G1 X89.800 Y116.420 E79.71593
G1 X89.208 Y116.420 E79.74689
G1 X118.870 Y86.758 E81.93871
G1 X118.870 Y86.166 E81.96967
G1 X88.616 Y116.420 E84.20527
G1 X88.023 Y116.420 E84.23623
G1 X118.870 Y85.573 E86.51561
G1 X118.870 Y84.981 E86.54656
G1 X87.431 Y116.420 E88.86972
G1 X86.838 Y116.420 E88.90067
G1 X118.870 Y84.388 E91.26761
G1 X118.870 Y83.796 E91.29856
G1 X86.246 Y116.420 E93.70927
G1 X85.653 Y116.420 E93.74023
G1 X118.494 Y83.580 E96.16690
G1 X117.901 Y83.580 E96.19786
G1 X85.061 Y116.420 E98.62453
G1 X84.468 Y116.420 E98.65548
G1 X117.309 Y83.580 E101.08216
G1 X116.716 Y83.580 E101.11311
G1 X83.876 Y116.420 E103.53978
G1 X83.284 Y116.420 E103.57074
G1 X116.124 Y83.580 E105.99741
G1 X115.532 Y83.580 E106.02837
G1 X82.691 Y116.420 E108.45504
G1 X82.099 Y116.420 E108.48599
G1 X114.939 Y83.580 E110.91267
G1 X114.347 Y83.580 E110.94362
G1 X81.506 Y116.420 E113.37029
G1 X81.130 Y116.204 E113.39297
G1 X113.754 Y83.580 E115.80368
G1 X113.162 Y83.580 E115.83464
G1 X81.130 Y115.612 E118.20157
G1 X81.130 Y115.019 E118.23253
G1 X112.569 Y83.580 E120.55568
G1 X111.977 Y83.580 E120.58664
G1 X81.130 Y114.427 E122.86602
G1 X81.130 Y113.834 E122.89697
G1 X111.384 Y83.580 E125.13257
G1 X110.792 Y83.580 E125.16353
G1 X81.130 Y113.242 E127.35535
G1 X81.130 Y112.650 E127.38631
G1 X110.200 Y83.580 E129.53436
G1 X109.607 Y83.580 E129.56531
G1 X81.130 Y112.057 E131.66958
G1 X81.130 Y111.465 E131.70054
G1 X109.015 Y83.580 E133.76103
G1 X108.422 Y83.580 E133.79198
G1 X81.130 Y110.872 E135.80870
G1 X81.130 Y110.280 E135.83965
G1 X107.830 Y83.580 E137.81259
G1 X107.237 Y83.580 E137.84355
G1 X81.130 Y109.687 E139.77271
G1 X81.130 Y109.095 E139.80366
G1 X106.645 Y83.580 E141.68904
G1 X106.052 Y83.580 E141.72000
G1 X81.130 Y108.502 E143.56160
G1 X81.130 Y107.910 E143.59256
G1 X105.460 Y83.580 E145.39039
G1 X104.868 Y83.580 E145.42134
G1 X81.130 Y107.318 E147.17539
G1 X81.130 Y106.725 E147.20635
G1 X104.275 Y83.580 E148.91662
G1 X103.683 Y83.580 E148.94758
G1 X81.130 Y106.133 E150.61407
G1 X81.130 Y105.540 E150.64503
G1 X103.090 Y83.580 E152.26775
G1 X102.498 Y83.580 E152.29870
G1 X81.130 Y104.948 E153.87764
G1 X81.130 Y104.355 E153.90860
G1 X101.905 Y83.580 E155.44376
G1 X101.313 Y83.580 E155.47472
G1 X81.130 Y103.763 E156.96610
G1 X81.130 Y103.170 E156.99706
G1 X100.720 Y83.580 E158.44467
G1 X100.128 Y83.580 E158.47562
G1 X81.130 Y102.578 E159.87945
G1 X81.130 Y101.986 E159.91041
G1 X99.536 Y83.580 E161.27046
G1 X98.943 Y83.580 E161.30142
G1 X81.130 Y101.393 E162.61769
G1 X81.130 Y100.801 E162.64865
G1 X98.351 Y83.580 E163.92115
G1 X97.758 Y83.580 E163.95210
G1 X81.130 Y100.208 E165.18083
G1 X81.130 Y99.616 E165.21178
G1 X97.166 Y83.580 E166.39673
G1 X96.573 Y83.580 E166.42768
G1 X81.130 Y99.023 E167.56885
G1 X81.130 Y98.431 E167.59980
G1 X95.981 Y83.580 E168.69719
G1 X95.388 Y83.580 E168.72815
G1 X81.130 Y97.838 E169.78176
G1 X81.130 Y97.246 E169.81272
G1 X94.796 Y83.580 E170.82255
G1 X94.204 Y83.580 E170.85351
G1 X81.130 Y96.654 E171.81956
G1 X81.130 Y96.061 E171.85052
G1 X93.611 Y83.580 E172.77280
G1 X93.019 Y83.580 E172.80375
G1 X81.130 Y95.469 E173.68226
G1 X81.130 Y94.876 E173.71321
G1 X92.426 Y83.580 E174.54794
G1 X91.834 Y83.580 E174.57889
G1 X81.130 Y94.284 E175.36984
G1 X81.130 Y93.691 E175.40080
G1 X91.241 Y83.580 E176.14797
G1 X90.649 Y83.580 E176.17892
G1 X81.130 Y93.099 E176.88232
G1 X81.130 Y92.506 E176.91327
G1 X90.056 Y83.580 E177.57289
G1 X89.464 Y83.580 E177.60384
G1 X81.130 Y91.914 E178.21968
G1 X81.130 Y91.322 E178.25064
G1 X88.872 Y83.580 E178.82270
G1 X88.279 Y83.580 E178.85365
G1 X81.130 Y90.729 E179.38194
G1 X81.130 Y90.137 E179.41289
G1 X87.687 Y83.580 E179.89740
G1 X87.094 Y83.580 E179.92835
G1 X81.130 Y89.544 E180.36908
G1 X81.130 Y88.952 E180.40004
G1 X86.502 Y83.580 E180.79699
G1 X85.909 Y83.580 E180.82795
G1 X81.130 Y88.359 E181.18112
G1 X81.130 Y87.767 E181.21207
G1 X85.317 Y83.580 E181.52147
G1 X84.724 Y83.580 E181.55243
G1 X81.130 Y87.174 E181.81805
G1 X81.130 Y86.582 E181.84900
G1 X84.132 Y83.580 E182.07084
G1 X83.540 Y83.580 E182.10180
G1 X81.130 Y85.990 E182.27986
G1 X81.130 Y85.397 E182.31082
G1 X82.947 Y83.580 E182.44511
G1 X82.355 Y83.580 E182.47606
G1 X81.130 Y84.805 E182.56657
G1 X81.130 Y84.212 E182.59753
G1 X81.762 Y83.580 E182.64426
G1 X81.170 Y83.580 E182.67522
G1 X81.130 Y83.620 E182.67817
G1 E179.67817 F1800.00000
G92 E0
G1 Z1.000 F7800.000
G1 X81.265 Y83.715 F7800.000
G1 E3.00000 F1800.00000
G1 X118.735 Y83.715 E4.95762 F3600.000
G1 X118.735 Y116.285 E6.65923
G1 X81.265 Y116.285 E8.61685
G1 X81.265 Y83.775 E10.31533
G1 X80.846 Y83.296 F7800.000
G1 X119.154 Y83.296 E12.31671 F3600.000
G1 X119.154 Y116.704 E14.06210
G1 X80.846 Y116.704 E16.06348
G1 X80.846 Y83.356 E17.80573
G1 X80.427 Y82.877 F7800.000
G1 X119.573 Y82.877 E19.85088 F3600.000
G1 X119.573 Y117.123 E21.64004
G1 X80.427 Y117.123 E23.68519
G1 X80.427 Y82.937 E25.47121
G1 X80.050 Y82.500 F7800.000
G1 X119.950 Y82.500 E27.14143 F2520.000
G1 X119.950 Y117.500 E28.60654
G1 X80.050 Y117.500 E30.27677
G1 X80.050 Y82.560 E31.73937
G1 X80.396 Y82.700 F7800.000
G1 X81.549 Y115.961 F7800.000
G1 X81.589 Y116.001 E31.74233 F3600.000
G1 X82.182 Y116.001 E31.77338
G1 X81.549 Y115.368 E31.82024
G1 X81.549 Y114.775 E31.85129
G1 X82.775 Y116.001 E31.94206
G1 X83.369 Y116.001 E31.97311
G1 X81.549 Y114.181 E32.10779
G1 X81.549 Y113.588 E32.13884
G1 X83.962 Y116.001 E32.31743
G1 X84.555 Y116.001 E32.34848
G1 X81.549 Y112.995 E32.57097
G1 X81.549 Y112.401 E32.60202
G1 X85.149 Y116.001 E32.86842
G1 X85.742 Y116.001 E32.89947
G1 X81.549 Y111.808 E33.20978
G1 X81.549 Y111.215 E33.24082
G1 X86.335 Y116.001 E33.59504
G1 X86.929 Y116.001 E33.62609
G1 X81.549 Y110.621 E34.02421
G1 X81.549 Y110.028 E34.05526
G1 X87.522 Y116.001 E34.49729
G1 X88.115 Y116.001 E34.52834
G1 X81.549 Y109.435 E35.01428
G1 X81.549 Y108.841 E35.04533
G1 X88.709 Y116.001 E35.57517
G1 X89.302 Y116.001 E35.60622
G1 X81.549 Y108.248 E36.17997
G1 X81.549 Y107.655 E36.21102
G1 X89.895 Y116.001 E36.82868
G1 X90.488 Y116.001 E36.85973
G1 X81.549 Y107.062 E37.52129
G1 X81.549 Y106.468 E37.55234
G1 X91.082 Y116.001 E38.25782
G1 X91.675 Y116.001 E38.28886
G1 X81.549 Y105.875 E39.03824
G1 X81.549 Y105.282 E39.06929
G1 X92.268 Y116.001 E39.86258
G1 X92.862 Y116.001 E39.89363
G1 X81.549 Y104.688 E40.73082
G1 X81.549 Y104.095 E40.76187
G1 X93.455 Y116.001 E41.64297
G1 X94.048 Y116.001 E41.67402
G1 X81.549 Y103.502 E42.59903
