; generated by Slic3r 1.2.4 on 2015-01-13 at 19:21:59

; external perimeters extrusion width = 0.35mm
; perimeters extrusion width = 0.52mm
; infill extrusion width = 0.52mm
; solid infill extrusion width = 0.52mm
; top infill extrusion width = 0.52mm

M107
M190 S85 ; set bed temperature
M104 S230 ; set temperature
G28 ; home all axes
M203 X192 Y208 Z3M203 X192 Y208 Z3 ; Speed limits to minimize skipped steps when moving really fast courtesy of forum.lulzbot.com user 1013
M109 S230 ; wait for temperature to be reached
G21 ; set units to millimeters
G90 ; use absolute coordinates
M82 ; use absolute distances for extrusion
G92 E0
G1 E-1.70000 F1800.00000
G92 E0
G1 Z0.350 F7200.000
G1 X74.765 Y78.053 F7200.000
G1 E1.70000 F1800.00000
G1 X76.518 Y76.574 E1.77647 F1080.000
G1 X78.670 Y75.781 E1.85293
G1 X79.850 Y75.675 E1.89243
G1 X120.150 Y75.675 E3.23609
G1 X122.409 Y76.072 E3.31256
G1 X124.397 Y77.215 E3.38903 F1080.000
G1 X125.876 Y78.968 E3.46549
G1 X126.669 Y81.120 E3.54196
G1 X126.775 Y82.300 E3.58145
G1 X126.775 Y117.700 E4.76175
G1 X126.378 Y119.959 E4.83821
G1 X125.235 Y121.947 E4.91468
G1 X123.482 Y123.426 E4.99115
G1 X121.330 Y124.219 E5.06761
G1 X120.150 Y124.325 E5.10711
G1 X79.850 Y124.325 E6.45077
G1 X77.591 Y123.928 E6.52724
G1 X75.603 Y122.785 E6.60371
G1 X74.124 Y121.032 E6.68017
G1 X73.331 Y118.880 E6.75664
G1 X73.225 Y117.700 E6.79613
G1 X73.225 Y82.300 E7.97642
G1 X73.622 Y80.041 E8.05289
G1 X74.739 Y78.099 E8.12761
G1 E6.42761 F1800.00000
G92 E0
G1 X80.200 Y82.650 F7200.000
G1 E1.70000 F1800.00000
G1 X119.800 Y82.650 E3.02032 F1008.000
G1 X119.800 Y117.350 E4.17728
G1 X80.200 Y117.350 E5.49760
G1 X80.200 Y82.702 E6.65280
G1 E4.95280 F1800.00000
G92 E0
G1 X80.633 Y116.877 F7200.000
G1 E1.70000 F1800.00000
G1 X80.673 Y116.917 E1.70188 F1080.000
G1 X81.557 Y116.917 E1.73137
G1 X80.633 Y115.993 E1.77495
G1 X80.633 Y115.109 E1.80443
G1 X82.441 Y116.917 E1.88971
G1 X83.325 Y116.917 E1.91919
G1 X80.633 Y114.225 E2.04616
G1 X80.633 Y113.341 E2.07564
G1 X84.209 Y116.917 E2.24431
G1 X85.093 Y116.917 E2.27379
G1 X80.633 Y112.457 E2.48415
G1 X80.633 Y111.573 E2.51363
G1 X85.977 Y116.917 E2.76569
G1 X86.861 Y116.917 E2.79517
G1 X80.633 Y110.689 E3.08892
G1 X80.633 Y109.805 E3.11841
G1 X87.745 Y116.917 E3.45385
G1 X88.629 Y116.917 E3.48334
G1 X80.633 Y108.921 E3.86048
G1 X80.633 Y108.037 E3.88996
G1 X89.513 Y116.917 E4.30880
G1 X90.397 Y116.917 E4.33828
G1 X80.633 Y107.153 E4.79881
G1 X80.633 Y106.269 E4.82830
G1 X91.281 Y116.917 E5.33052
G1 X92.165 Y116.917 E5.36001
G1 X80.633 Y105.385 E5.90393
G1 X80.633 Y104.501 E5.93341
G1 X93.049 Y116.917 E6.51903
G1 X93.933 Y116.917 E6.54851
G1 X80.633 Y103.617 E7.17582
G1 X80.633 Y102.733 E7.20531
G1 X94.817 Y116.917 E7.87432
G1 X95.701 Y116.917 E7.90380
G1 X80.633 Y101.849 E8.61450
G1 X80.633 Y100.965 E8.64399
G1 X96.585 Y116.917 E9.39638
G1 X97.469 Y116.917 E9.42587
G1 X80.633 Y100.081 E10.21996
G1 X80.633 Y99.197 E10.24944
G1 X98.353 Y116.917 E11.08523
G1 X99.237 Y116.917 E11.11472
G1 X80.633 Y98.313 E11.99220
G1 X80.633 Y97.429 E12.02168
G1 X100.121 Y116.917 E12.94086
G1 X101.005 Y116.917 E12.97035
G1 X80.633 Y96.545 E13.93122
G1 X80.633 Y95.661 E13.96070
G1 X101.889 Y116.917 E14.96327
G1 X102.773 Y116.917 E14.99276
G1 X80.633 Y94.777 E16.03702
G1 X80.633 Y93.893 E16.06650
G1 X103.657 Y116.917 E17.15247
G1 X104.541 Y116.917 E17.18195
G1 X80.633 Y93.009 E18.30960
G1 X80.633 Y92.125 E18.33909
G1 X105.425 Y116.917 E19.50844
G1 X106.309 Y116.917 E19.53792
G1 X80.633 Y91.241 E20.74897
G1 X80.633 Y90.357 E20.77845
G1 X107.193 Y116.917 E22.03119
G1 X108.077 Y116.917 E22.06067
G1 X80.633 Y89.473 E23.35511
G1 X80.633 Y88.589 E23.38459
G1 X108.961 Y116.917 E24.72073
G1 X109.845 Y116.917 E24.75021
G1 X80.633 Y87.705 E26.12804
G1 X80.633 Y86.821 E26.15752
G1 X110.729 Y116.917 E27.57704
G1 X111.613 Y116.917 E27.60652
G1 X80.633 Y85.937 E29.06774
G1 X80.633 Y85.053 E29.09722
G1 X112.497 Y116.917 E30.60014
G1 X113.381 Y116.917 E30.62962
G1 X80.633 Y84.169 E32.17423
G1 X80.633 Y83.285 E32.20371
G1 X114.265 Y116.917 E33.79001
G1 X115.149 Y116.917 E33.81950
G1 X81.315 Y83.083 E35.41533
G1 X82.199 Y83.083 E35.44481
G1 X116.033 Y116.917 E37.04064
G1 X116.917 Y116.917 E37.07013
G1 X83.083 Y83.083 E38.66596
G1 X83.967 Y83.083 E38.69544
G1 X117.801 Y116.917 E40.29127
G1 X118.685 Y116.917 E40.32076
G1 X84.851 Y83.083 E41.91659
G1 X85.735 Y83.083 E41.94607
G1 X119.367 Y116.715 E43.53238
G1 X119.367 Y115.831 E43.56186
G1 X86.619 Y83.083 E45.10647
G1 X87.503 Y83.083 E45.13595
G1 X119.367 Y114.947 E46.63887
G1 X119.367 Y114.063 E46.66835
G1 X88.387 Y83.083 E48.12957
G1 X89.271 Y83.083 E48.15905
G1 X119.367 Y113.179 E49.57858
G1 X119.367 Y112.295 E49.60806
G1 X90.155 Y83.083 E50.98589
G1 X91.039 Y83.083 E51.01537
G1 X119.367 Y111.411 E52.35150
G1 X119.367 Y110.527 E52.38099
G1 X91.923 Y83.083 E53.67543
G1 X92.807 Y83.083 E53.70491
G1 X119.367 Y109.643 E54.95765
G1 X119.367 Y108.759 E54.98714
G1 X93.691 Y83.083 E56.19818
G1 X94.575 Y83.083 E56.22767
G1 X119.367 Y107.875 E57.39702
G1 X119.367 Y106.991 E57.42650
G1 X95.459 Y83.083 E58.55416
G1 X96.343 Y83.083 E58.58364
G1 X119.367 Y106.107 E59.66961
G1 X119.367 Y105.223 E59.69909
G1 X97.227 Y83.083 E60.74336
G1 X98.111 Y83.083 E60.77284
G1 X119.367 Y104.339 E61.77541
G1 X119.367 Y103.455 E61.80489
G1 X98.995 Y83.083 E62.76577
G1 X99.879 Y83.083 E62.79525
G1 X119.367 Y102.571 E63.71443
G1 X119.367 Y101.687 E63.74392
G1 X100.763 Y83.083 E64.62140
G1 X101.647 Y83.083 E64.65089
G1 X119.367 Y100.803 E65.48668
G1 X119.367 Y99.919 E65.51616
G1 X102.531 Y83.083 E66.31026
G1 X103.415 Y83.083 E66.33974
G1 X119.367 Y99.035 E67.09214
G1 X119.367 Y98.151 E67.12162
G1 X104.299 Y83.083 E67.83233
G1 X105.183 Y83.083 E67.86181
G1 X119.367 Y97.267 E68.53082
G1 X119.367 Y96.383 E68.56031
G1 X106.067 Y83.083 E69.18762
G1 X106.951 Y83.083 E69.21710
G1 X119.367 Y95.499 E69.80272
G1 X119.367 Y94.615 E69.83221
G1 X107.835 Y83.083 E70.37613
G1 X108.719 Y83.083 E70.40561
G1 X119.367 Y93.731 E70.90784
G1 X119.367 Y92.847 E70.93733
G1 X109.603 Y83.083 E71.39786
G1 X110.487 Y83.083 E71.42734
G1 X119.367 Y91.963 E71.84618
G1 X119.367 Y91.079 E71.87567
G1 X111.371 Y83.083 E72.25281
G1 X112.255 Y83.083 E72.28229
G1 X119.367 Y90.195 E72.61774
G1 X119.367 Y89.311 E72.64722
G1 X113.139 Y83.083 E72.94098
G1 X114.023 Y83.083 E72.97046
G1 X119.367 Y88.427 E73.22252
G1 X119.367 Y87.543 E73.25200
G1 X114.907 Y83.083 E73.46236
G1 X115.791 Y83.083 E73.49185
G1 X119.367 Y86.659 E73.66051
G1 X119.367 Y85.775 E73.69000
G1 X116.675 Y83.083 E73.81697
G1 X117.559 Y83.083 E73.84645
G1 X119.367 Y84.891 E73.93173
G1 X119.367 Y84.007 E73.96121
G1 X118.443 Y83.083 E74.00479
G1 X119.327 Y83.083 E74.03428
G1 X119.367 Y83.123 E74.03616
M106 S140.25
G1 E72.33616 F1800.00000
G92 E0
G1 Z0.550 F7200.000
G1 X119.975 Y82.475 F7200.000
G1 E1.70000 F1800.00000
G1 X119.975 Y117.525 E2.02816 F3360.000
G1 X80.025 Y117.525 E2.40219
G1 X80.025 Y82.475 E2.73035
G1 X119.922 Y82.475 E3.10390
G1 X119.606 Y117.196 F7200.000
G1 X119.646 Y117.156 E3.10473 F3600.000
G1 X119.646 Y116.475 E3.11474
G1 X118.925 Y117.196 E3.12973
G1 X118.243 Y117.196 E3.13975
G1 X119.646 Y115.793 E3.16890
G1 X119.646 Y115.112 E3.17891
G1 X117.562 Y117.196 E3.22223
G1 X116.880 Y117.196 E3.23224
G1 X119.646 Y114.430 E3.28972
G1 X119.646 Y113.749 E3.29974
G1 X116.199 Y117.196 E3.37138
G1 X115.517 Y117.196 E3.38139
G1 X119.646 Y113.067 E3.46719
G1 X119.646 Y112.386 E3.47720
G1 X114.836 Y117.196 E3.57717
G1 X114.154 Y117.196 E3.58718
G1 X119.646 Y111.704 E3.70130
G1 X119.646 Y111.022 E3.71132
G1 X113.472 Y117.196 E3.83960
G1 X112.791 Y117.196 E3.84962
G1 X119.646 Y110.341 E3.99206
G1 X119.646 Y109.659 E4.00208
G1 X112.109 Y117.196 E4.15869
G1 X111.428 Y117.196 E4.16870
G1 X119.646 Y108.978 E4.33947
G1 X119.646 Y108.296 E4.34948
G1 X110.746 Y117.196 E4.53442
G1 X110.065 Y117.196 E4.54443
G1 X119.646 Y107.615 E4.74352
G1 X119.646 Y106.933 E4.75354
G1 X109.383 Y117.196 E4.96679
G1 X108.702 Y117.196 E4.97681
G1 X119.646 Y106.252 E5.20422
G1 X119.646 Y105.570 E5.21424
G1 X108.020 Y117.196 E5.45582
G1 X107.339 Y117.196 E5.46583
G1 X119.646 Y104.889 E5.72157
G1 X119.646 Y104.207 E5.73158
G1 X106.657 Y117.196 E6.00149
G1 X105.976 Y117.196 E6.01150
G1 X119.646 Y103.526 E6.29556
G1 X119.646 Y102.844 E6.30558
G1 X105.294 Y117.196 E6.60380
G1 X104.613 Y117.196 E6.61381
G1 X119.646 Y102.163 E6.92620
G1 X119.646 Y101.481 E6.93621
G1 X103.931 Y117.196 E7.26276
G1 X103.250 Y117.196 E7.27278
G1 X119.646 Y100.800 E7.61349
G1 X119.646 Y100.118 E7.62350
G1 X102.568 Y117.196 E7.97837
G1 X101.887 Y117.196 E7.98838
G1 X119.646 Y99.437 E8.35742
G1 X119.646 Y98.755 E8.36743
G1 X101.205 Y117.196 E8.75063
G1 X100.523 Y117.196 E8.76064
G1 X119.646 Y98.073 E9.15800
G1 X119.646 Y97.392 E9.16801
G1 X99.842 Y117.196 E9.57953
G1 X99.160 Y117.196 E9.58954
G1 X119.646 Y96.710 E10.01522
G1 X119.646 Y96.029 E10.02523
G1 X98.479 Y117.196 E10.46507
G1 X97.797 Y117.196 E10.47509
G1 X119.646 Y95.347 E10.92909
G1 X119.646 Y94.666 E10.93910
G1 X97.116 Y117.196 E11.40727
G1 X96.434 Y117.196 E11.41728
G1 X119.646 Y93.984 E11.89961
G1 X119.646 Y93.303 E11.90962
G1 X95.753 Y117.196 E12.40611
G1 X95.071 Y117.196 E12.41612
G1 X119.646 Y92.621 E12.92677
G1 X119.646 Y91.940 E12.93679
G1 X94.390 Y117.196 E13.46160
G1 X93.708 Y117.196 E13.47161
G1 X119.646 Y91.258 E14.01058
G1 X119.646 Y90.577 E14.02060
G1 X93.027 Y117.196 E14.57373
G1 X92.345 Y117.196 E14.58374
G1 X119.646 Y89.895 E15.15104
G1 X119.646 Y89.214 E15.16105
G1 X91.664 Y117.196 E15.74251
G1 X90.982 Y117.196 E15.75252
G1 X119.646 Y88.532 E16.34814
G1 X119.646 Y87.851 E16.35816
G1 X90.301 Y117.196 E16.96794
G1 X89.619 Y117.196 E16.97795
G1 X119.646 Y87.169 E17.60189
G1 X119.646 Y86.487 E17.61190
G1 X88.937 Y117.196 E18.25001
G1 X88.256 Y117.196 E18.26002
G1 X119.646 Y85.806 E18.91229
G1 X119.646 Y85.124 E18.92230
G1 X87.574 Y117.196 E19.58873
G1 X86.893 Y117.196 E19.59874
G1 X119.646 Y84.443 E20.27933
G1 X119.646 Y83.761 E20.28934
G1 X86.211 Y117.196 E20.98409
G1 X85.530 Y117.196 E20.99411
G1 X119.646 Y83.080 E21.70302
G1 X119.241 Y82.804 E21.71022
G1 X84.848 Y117.196 E22.42487
G1 X84.167 Y117.196 E22.43489
G1 X118.559 Y82.804 E23.14953
G1 X117.878 Y82.804 E23.15955
G1 X83.485 Y117.196 E23.87420
G1 X82.804 Y117.196 E23.88421
G1 X117.196 Y82.804 E24.59886
G1 X116.515 Y82.804 E24.60887
G1 X82.122 Y117.196 E25.32352
G1 X81.441 Y117.196 E25.33353
G1 X115.833 Y82.804 E26.04818
G1 X115.152 Y82.804 E26.05820
G1 X80.759 Y117.196 E26.77284
G1 X80.354 Y116.920 E26.78005
G1 X114.470 Y82.804 E27.48896
G1 X113.789 Y82.804 E27.49898
G1 X80.354 Y116.239 E28.19372
G1 X80.354 Y115.557 E28.20374
G1 X113.107 Y82.804 E28.88432
G1 X112.426 Y82.804 E28.89434
G1 X80.354 Y114.876 E29.56076
G1 X80.354 Y114.194 E29.57078
G1 X111.744 Y82.804 E30.22304
G1 X111.062 Y82.804 E30.23306
G1 X80.354 Y113.512 E30.87116
G1 X80.354 Y112.831 E30.88117
G1 X110.381 Y82.804 E31.50511
G1 X109.699 Y82.804 E31.51513
G1 X80.354 Y112.149 E32.12490
G1 X80.354 Y111.468 E32.13492
G1 X109.018 Y82.804 E32.73054
G1 X108.336 Y82.804 E32.74055
G1 X80.354 Y110.786 E33.32201
G1 X80.354 Y110.105 E33.33202
G1 X107.655 Y82.804 E33.89931
G1 X106.973 Y82.804 E33.90933
G1 X80.354 Y109.423 E34.46246
G1 X80.354 Y108.742 E34.47247
G1 X106.292 Y82.804 E35.01145
G1 X105.610 Y82.804 E35.02146
G1 X80.354 Y108.060 E35.54627
G1 X80.354 Y107.379 E35.55628
G1 X104.929 Y82.804 E36.06693
G1 X104.247 Y82.804 E36.07694
G1 X80.354 Y106.697 E36.57343
G1 X80.354 Y106.016 E36.58344
G1 X103.566 Y82.804 E37.06577
G1 X102.884 Y82.804 E37.07578
G1 X80.354 Y105.334 E37.54394
G1 X80.354 Y104.653 E37.55396
G1 X102.203 Y82.804 E38.00796
G1 X101.521 Y82.804 E38.01797
G1 X80.354 Y103.971 E38.45781
G1 X80.354 Y103.290 E38.46783
G1 X100.840 Y82.804 E38.89351
G1 X100.158 Y82.804 E38.90352
G1 X80.354 Y102.608 E39.31504
G1 X80.354 Y101.926 E39.32505
G1 X99.476 Y82.804 E39.72240
G1 X98.795 Y82.804 E39.73242
G1 X80.354 Y101.245 E40.11561
G1 X80.354 Y100.563 E40.12563
G1 X98.113 Y82.804 E40.49466
G1 X97.432 Y82.804 E40.50467
G1 X80.354 Y99.882 E40.85954
G1 X80.354 Y99.200 E40.86955
G1 X96.750 Y82.804 E41.21026
G1 X96.069 Y82.804 E41.22028
G1 X80.354 Y98.519 E41.54682
G1 X80.354 Y97.837 E41.55684
G1 X95.387 Y82.804 E41.86922
G1 X94.706 Y82.804 E41.87924
G1 X80.354 Y97.156 E42.17746
G1 X80.354 Y96.474 E42.18747
G1 X94.024 Y82.804 E42.47154
G1 X93.343 Y82.804 E42.48155
G1 X80.354 Y95.793 E42.75145
G1 X80.354 Y95.111 E42.76146
G1 X92.661 Y82.804 E43.01720
G1 X91.980 Y82.804 E43.02722
G1 X80.354 Y94.430 E43.26879
G1 X80.354 Y93.748 E43.27881
G1 X91.298 Y82.804 E43.50622
G1 X90.617 Y82.804 E43.51624
G1 X80.354 Y93.067 E43.72949
G1 X80.354 Y92.385 E43.73950
G1 X89.935 Y82.804 E43.93860
G1 X89.254 Y82.804 E43.94861
G1 X80.354 Y91.704 E44.13354
G1 X80.354 Y91.022 E44.14356
G1 X88.572 Y82.804 E44.31432
G1 X87.891 Y82.804 E44.32434
G1 X80.354 Y90.340 E44.48095
G1 X80.354 Y89.659 E44.49096
G1 X87.209 Y82.804 E44.63341
G1 X86.527 Y82.804 E44.64342
G1 X80.354 Y88.977 E44.77170
G1 X80.354 Y88.296 E44.78172
G1 X85.846 Y82.804 E44.89584
G1 X85.164 Y82.804 E44.90585
G1 X80.354 Y87.614 E45.00582
G1 X80.354 Y86.933 E45.01583
G1 X84.483 Y82.804 E45.10163
G1 X83.801 Y82.804 E45.11164
G1 X80.354 Y86.251 E45.18328
G1 X80.354 Y85.570 E45.19329
G1 X83.120 Y82.804 E45.25077
G1 X82.438 Y82.804 E45.26079
G1 X80.354 Y84.888 E45.30410
G1 X80.354 Y84.207 E45.31411
G1 X81.757 Y82.804 E45.34327
G1 X81.075 Y82.804 E45.35328
G1 X80.354 Y83.525 E45.36827
G1 X80.354 Y82.844 E45.37829
G1 X80.394 Y82.804 E45.37912
G1 E43.67912 F1800.00000
G92 E0
G1 Z0.750 F7200.000
G1 X80.025 Y82.475 F7200.000
G1 E1.70000 F1800.00000
G1 X119.975 Y82.475 E2.07403 F3360.000
G1 X119.975 Y117.525 E2.40219
G1 X80.025 Y117.525 E2.77623
G1 X80.025 Y82.527 E3.10390
G1 X80.354 Y117.156 F7200.000
G1 X80.394 Y117.196 E3.10473 F3600.000
G1 X81.075 Y117.196 E3.11474
G1 X80.354 Y116.475 E3.12973
G1 X80.354 Y115.793 E3.13974
G1 X81.757 Y117.196 E3.16890
G1 X82.438 Y117.196 E3.17891
G1 X80.354 Y115.112 E3.22223
G1 X80.354 Y114.430 E3.23224
G1 X83.120 Y117.196 E3.28972
G1 X83.801 Y117.196 E3.29973
G1 X80.354 Y113.749 E3.37137
G1 X80.354 Y113.067 E3.38138
G1 X84.483 Y117.196 E3.46718
G1 X85.164 Y117.196 E3.47720
G1 X80.354 Y112.386 E3.57716
G1 X80.354 Y111.704 E3.58717
G1 X85.846 Y117.196 E3.70129
G1 X86.527 Y117.196 E3.71131
G1 X80.354 Y111.023 E3.83959
G1 X80.354 Y110.341 E3.84961
G1 X87.209 Y117.196 E3.99205
G1 X87.891 Y117.196 E4.00207
G1 X80.354 Y109.659 E4.15867
G1 X80.354 Y108.978 E4.16869
G1 X88.572 Y117.196 E4.33946
G1 X89.254 Y117.196 E4.34947
G1 X80.354 Y108.296 E4.53440
G1 X80.354 Y107.615 E4.54442
G1 X89.935 Y117.196 E4.74351
G1 X90.617 Y117.196 E4.75352
G1 X80.354 Y106.933 E4.96678
G1 X80.354 Y106.252 E4.97679
G1 X91.298 Y117.196 E5.20421
G1 X91.980 Y117.196 E5.21422
G1 X80.354 Y105.570 E5.45580
G1 X80.354 Y104.889 E5.46581
G1 X92.661 Y117.196 E5.72155
G1 X93.343 Y117.196 E5.73156
G1 X80.354 Y104.207 E6.00146
G1 X80.354 Y103.526 E6.01148
G1 X94.024 Y117.196 E6.29554
G1 X94.706 Y117.196 E6.30555
G1 X80.354 Y102.844 E6.60378
G1 X80.354 Y102.163 E6.61379
G1 X95.387 Y117.196 E6.92618
G1 X96.069 Y117.196 E6.93619
G1 X80.354 Y101.481 E7.26274
G1 X80.354 Y100.800 E7.27275
G1 X96.750 Y117.196 E7.61346
G1 X97.432 Y117.196 E7.62347
G1 X80.354 Y100.118 E7.97834
G1 X80.354 Y99.437 E7.98836
G1 X98.113 Y117.196 E8.35739
G1 X98.795 Y117.196 E8.36740
G1 X80.354 Y98.755 E8.75059
G1 X80.354 Y98.074 E8.76061
G1 X99.476 Y117.196 E9.15796
G1 X100.158 Y117.196 E9.16798
G1 X80.354 Y97.392 E9.57949
G1 X80.354 Y96.710 E9.58951
G1 X100.840 Y117.196 E10.01519
G1 X101.521 Y117.196 E10.02520
G1 X80.354 Y96.029 E10.46504
G1 X80.354 Y95.347 E10.47505
G1 X102.203 Y117.196 E10.92905
G1 X102.884 Y117.196 E10.93907
G1 X80.354 Y94.666 E11.40723
G1 X80.354 Y93.984 E11.41724
G1 X103.566 Y117.196 E11.89957
G1 X104.247 Y117.196 E11.90958
G1 X80.354 Y93.303 E12.40607
G1 X80.354 Y92.621 E12.41608
G1 X104.929 Y117.196 E12.92673
G1 X105.610 Y117.196 E12.93674
G1 X80.354 Y91.940 E13.46155
G1 X80.354 Y91.258 E13.47157
G1 X106.292 Y117.196 E14.01054
G1 X106.973 Y117.196 E14.02055
G1 X80.354 Y90.577 E14.57368
